GTG Skin Warmer V2_1 Teal Base XT.cube
LUT_3D_SIZE 17
0.005304841560701408 0.0840631407045097 0.09426192839720707
0.04861731674438936 0.08032704448420161 0.08952888180224748
0.09555918642162962 0.07473270709567126 0.08290194975823587
0.1440664125251172 0.06832833313532097 0.07541955609408255
0.18911183241322915 0.06202788607332979 0.06895331015182393
0.23264222901253845 0.055792749573858685 0.06362337600264627
0.278380304389611 0.05051626113587565 0.05978932736852673
0.31962514149920224 0.049939922832144795 0.059179704530983715
0.35815940008664476 0.053335463454193294 0.06084551533554864
0.39701704393631715 0.05973031717663499 0.06401480413760034
0.4365929871642934 0.06772610802477169 0.06750178848693793
0.47440687002481235 0.07764417521933867 0.07185036635209463
0.5123129676294319 0.08691766527778212 0.07545238083043226
0.5488203273136186 0.09518195821390499 0.07902297583335278
0.5690619114785131 0.09889863781037424 0.08108487848554313
0.5885109998243515 0.10124358400002523 0.08306245901137775
0.6089304058823315 0.10173396597094878 0.08499351573770925
0.002030000413123646 0.12431738559695613 0.0903990700790816
0.04377044936905459 0.12025642578084765 0.08449424944348097
0.09583075366418041 0.1145595902773946 0.07564662635381589
0.14951893809164016 0.10692982097340763 0.06635067566378985
0.19671929978190128 0.09778550015483625 0.059235076991757424
0.23939036134376157 0.08760458354410086 0.05400696267044147
0.2832907907009325 0.07822498495490819 0.051312405630693475
0.3243026094626613 0.07379759664758834 0.05181873253577667
0.3628888299245881 0.07404558106106854 0.054723086665574024
0.4013526206906511 0.07756177224632205 0.059064878385775454
0.43993116316214176 0.08327060752674019 0.0638353251186696
0.47708407448980583 0.09089055243636947 0.06907603132502929
0.5142603378949411 0.09810721921742692 0.07323292753737426
0.5501768884626879 0.10474393384122374 0.07730901551313787
0.5700030908883787 0.10757806235077105 0.07963940992636143
0.5889836741483254 0.10909079640482591 0.08187245559255629
0.6088301059840426 0.10873492211137269 0.08407457642080214
0 0.1651418806140724 0.08635112749024418
0.03602887622013245 0.16333003545877597 0.07949794080186781
0.09040902894204145 0.16044301542449743 0.06868111842025917
0.1502472176873866 0.15525517487251064 0.0567119458131167
0.203255009048592 0.1468333028856 0.04705382984087994
0.24707687582395876 0.13579298870822432 0.04078989663998491
0.2909575545005834 0.12343079617237383 0.037630811275650676
0.3322263374225255 0.1158419205150005 0.03887206095533091
0.37154608472647005 0.11353634489880182 0.043149941214310455
0.4107132975119298 0.11483585247858479 0.04883251804815429
0.4485264816017901 0.11943495180663213 0.05574279824205106
0.48631178854950996 0.12540448556141778 0.06191205501309092
0.5233650548765131 0.13152357147529753 0.06688890169435786
0.5589374006131295 0.1375623512756747 0.0718835188683094
0.5782725384378903 0.14011188859893306 0.07473349384595665
0.5965031040958113 0.14139155476664983 0.07748526992003865
0.6152356663229298 0.1408718954716851 0.08025572447260285
0 0.20517475270424634 0.0827984692514776
0.027181093410039527 0.2051285518608878 0.07577878063465025
0.0787202142416188 0.20430335492601445 0.06459531312266277
0.13930613711271775 0.2015859666426174 0.05120968921439915
0.19753395110033656 0.1953249022149827 0.03922465181063615
0.24630429639216578 0.18545574868409626 0.030474337400607277
0.2932547355357353 0.17181012029729456 0.02531742014980512
0.3356345245187661 0.16104627563646848 0.026512759931811968
0.37584237953213007 0.15540506007583968 0.031874609284060364
0.4151186039666043 0.1541103366574813 0.03946338763163422
0.4538191400803858 0.1560340586953673 0.047545587810992246
0.4922585145305498 0.15964897821369087 0.054546710801914686
0.5286810841141871 0.16405970702683795 0.060591581160148865
0.5636907106101309 0.1688238653538304 0.06665796242077571
0.5825770610509766 0.17079572410825905 0.07008030956042743
0.6003121673436542 0.17167543612598973 0.07334902930208338
0.6184987876993585 0.1709807812237322 0.07660312544713613
0 0.2435132994166589 0.08012819833890494
0.01913257434766733 0.24456140764668285 0.07350767490963228
0.06622454700735826 0.24538867789209054 0.06264836443052904
0.12218013177514818 0.24419824934164316 0.049832547946591636
0.1807677078391298 0.24028581383822975 0.036750151895822654
0.23396726752179864 0.23294584454981418 0.025789419073009686
0.2869353199073183 0.22061528886102774 0.01790241730981304
0.33195205498977537 0.20794028391849226 0.017638889044776163
0.3738271254781725 0.19910717222207777 0.023124024436364382
0.4142808070766308 0.1943962074935171 0.03139032211414521
0.4542178405103084 0.19304325769665856 0.04004967256843175
0.4933292641085978 0.19384869496753918 0.04767215454035979
0.5293082784358051 0.19613791429631988 0.0548833012597509
0.5635093637339325 0.19907067449960808 0.06200847639623999
0.5821385042953234 0.2002644928794467 0.06599213665098455
0.5997610806935143 0.20064399884610376 0.0697207678895449
0.6178717095646179 0.19996001371696706 0.07350638033253454
0 0.2827219737764901 0.07835958278342241
0.012632792757103908 0.2839442184189951 0.07243926744010423
0.05639938954429607 0.28472589494431555 0.06295434580396152
0.10596436067194549 0.2844728375391097 0.05134453466381775
0.16063588164759968 0.2820995173869576 0.0386108193595424
0.2146604060806913 0.2767958276465052 0.026894145972592237
0.2731442118759029 0.2666001222981886 0.01696680097017019
0.322157254527936 0.2542096490627514 0.014412334136965372
0.36614578572580525 0.24323140837202264 0.018424021915815856
0.40836507029793556 0.23540672557096745 0.025716175999894418
0.4497632611511048 0.2307490552308192 0.03400131036594954
0.48954631916999236 0.22869842959883688 0.041969299191761254
0.5254640025236338 0.22863094970520528 0.05009527204534135
0.5592625723227482 0.22954218853976166 0.05808342290700323
0.5779451341159036 0.22985879657861638 0.06252073679055349
0.5952998899024362 0.23002717815270052 0.06713695188461419
0.6122956717642254 0.23035968690860925 0.07285357487160866
0 0.3238802084709842 0.07818739573821012
0.00931214700229987 0.324443329998054 0.07376941658872675
0.04920338429267172 0.32611536811012415 0.06563268178490285
0.09368636121527764 0.32719992665985514 0.05556928474929207
0.14201456754988456 0.3267190859404715 0.04435954068351341
0.19286111372723935 0.32391405624793246 0.0332323053267215
0.252608558082634 0.31710164802274016 0.02265626996170405
0.30625045971719694 0.30666075169797585 0.01790068614511399
0.35289347141538335 0.29509445630080866 0.018622590389142834
0.39690851300821034 0.28471660592181186 0.023194095565668774
0.4402163130740282 0.276600616236069 0.02963659569151817
0.48086216913538316 0.2711259211423109 0.03759914149844112
0.5174318662776065 0.2679701836908759 0.046212444586749606
0.5515181724111835 0.26620591294956003 0.05472065187554333
0.5693025872984069 0.26588479323075576 0.06097853868480191
0.5860788468568688 0.2656729444704191 0.06714170138677726
0.6039455809499792 0.2650840100254143 0.07299927920969565
0 0.36057111330673747 0.08019077918666187
0.008580704624396258 0.3610912079001661 0.07676463115792677
0.04585923699520143 0.3632303766357172 0.07001307709833879
0.08623580611788985 0.3650748184183178 0.06164806874680084
0.13016472285841105 0.3658710391951806 0.05209020641947188
0.17701969532923256 0.36459938794862395 0.042625433294499346
0.23406583308980825 0.36024083367162874 0.03324023886519299
0.2886228947501455 0.3529708791104069 0.026799501301294614
0.3376608517484998 0.343741638142527 0.024362536486196545
0.38280567364012996 0.333779107075693 0.025437717306383823
0.4272266329694673 0.3244830583139811 0.029396767389643294
0.4688235045899155 0.31693956554618874 0.03640792027863335
0.5064724136965228 0.31153422004152925 0.044565759675072966
0.5392258846600083 0.30818777609406495 0.05568346276249669
0.5574279328293202 0.30678893459099754 0.062323417626069064
0.5750512068041371 0.3055572618940254 0.06839753577205272
0.5938746044345755 0.3041892869279434 0.07416547413272119
0 0.3950355144133043 0.08331263508310505
0.009075699236648293 0.39530970206820737 0.08076111273044231
0.04481759411529231 0.39754726402406815 0.07528687256906011
0.08202670142209029 0.3998069074426279 0.06848263197917523
0.12255065390829638 0.40047619322705297 0.06136729191684141
0.1659286924277551 0.399906431067784 0.05397638628011174
0.21890791293740497 0.39788410472688085 0.045504049823569585
0.2719907855034899 0.39358749988381314 0.03835171153073727
0.3215529432419452 0.38729282946882304 0.033637634428994326
0.3683986861137287 0.3795748246790872 0.03153382951693073
0.41359164651647184 0.37070650638260555 0.03348998565029962
0.45589197109889706 0.36239258847111794 0.03882754274770915
0.4930866331945234 0.3555313583146822 0.0485427474816344
0.5268711996031162 0.3506577807967564 0.05908155011985889
0.5461929262755397 0.34838375231172286 0.06513523588156857
0.5649967845250649 0.34639508444369843 0.07057660141689343
0.584702244923517 0.34447179840665915 0.07622145321318434
0 0.4306495280645343 0.08706208160191237
0.010080110661824999 0.4304525119218546 0.08523111606622161
0.044610673017938626 0.4322410176754692 0.08101532189843139
0.08090048547365127 0.4327853943439992 0.07673476520639481
0.11833609780013302 0.43343973028904725 0.07150259985612316
0.15806249789291738 0.4337552942630283 0.06544707843238215
0.20662786784268117 0.4334590332124003 0.057978772657674316
0.25708993940910296 0.43165028485799944 0.05059169044979389
0.3057748643098937 0.4280987815657328 0.044382392970132925
0.35317249315436877 0.42237792486687714 0.04090628032798546
0.4000431966155084 0.41489745612795415 0.0409491736880846
0.4431932309983845 0.4062825957841504 0.046992963550123557
0.4818191646211112 0.39891486908727747 0.05528012714927939
0.5172961586057422 0.3933071722398508 0.0637835189088448
0.5380576668670229 0.3905575099784996 0.06855167453729608
0.557945494819058 0.38811101926537356 0.07332604538186849
0.5786699389563424 0.3857374052219802 0.07848433649892893
0 0.4673223718849275 0.09047035337298948
0.011079990146083197 0.46586868045488733 0.08964786304112286
0.045606934161467695 0.46530754268826036 0.08763489642624965
0.08048176700191485 0.46575897696696195 0.08455761265671341
0.11589804551635834 0.46673710655841566 0.0804859053551748
0.15252174151411804 0.4678148792879943 0.07550660313655028
0.1967102129187789 0.46901543940638907 0.0688986449851303
0.2442053036359873 0.4691516440859829 0.06179343236928045
0.2914952377522416 0.46727099834468033 0.055858673041658154
0.3384414541450759 0.46336888169788365 0.051890328621693876
0.3861449317247257 0.45621371180213327 0.053356934176228915
0.4317678797485869 0.4487397307232998 0.05774285178204694
0.473110283429941 0.44223615127894567 0.06329877945258244
0.5109815679058262 0.43707598931879543 0.06880344958701953
0.5330816543291522 0.43431395125111005 0.07251787682357058
0.554227392836093 0.4317929141229936 0.07638563328272202
0.5762983492992779 0.4293206415234558 0.08053071316327864
0 0.5043843809733703 0.09369475473832312
0.011591578994030887 0.5024591643384979 0.09335471992480936
0.045143282489942066 0.5011848521739252 0.09232692851842449
0.07889395870981397 0.5012246724824757 0.09021503576620306
0.11276874321307763 0.5021559424902958 0.08705863662180346
0.147554328788125 0.5034102956656349 0.08299226613027261
0.18896447652443824 0.5049106504770771 0.07761391267365908
0.2342148391548702 0.505659016133978 0.07169261844701544
0.2797934205611538 0.504917476319668 0.06632070031354642
0.3259248151056297 0.5003148640339754 0.06516900502449363
0.37379838042426683 0.49450735925879036 0.06606356043566539
0.42099270022441804 0.4886478669184675 0.06826336287536046
0.4651330473377645 0.48348133029984397 0.07099345579578155
0.5057596708521229 0.4790064796107642 0.07446330423095054
0.5297835251483594 0.4765431947021637 0.0769075828977782
0.5527807392458252 0.47427757818709926 0.07943027068378015
0.5767060234187 0.4720482421615399 0.08205467347703183
0.00018774679927175013 0.5301641155796236 0.09472729296967292
0.011165425878948594 0.5279283491733983 0.0945823569253205
0.04406705917605707 0.5260889610446435 0.09410546843223942
0.07730246185942703 0.5254772313643887 0.09267732348161833
0.11055845761701592 0.5259346981023859 0.090218366230008
0.14438358876825078 0.5268899393975134 0.08687634246512024
0.18435359277969965 0.5282814234041162 0.08228757184245063
0.228425158206731 0.5292828584753094 0.07697566947141488
0.2735108134641958 0.527367797826539 0.07380754209110962
0.31865593130850806 0.523332017390982 0.07291010721215894
0.36638924325808053 0.5185749591315223 0.0730716959906764
0.41431855470340506 0.5135689093646274 0.07423116320548995
0.45988814595166605 0.508901614399552 0.07604970746145348
0.502217132136371 0.5048992805940858 0.07824444411512253
0.5275365983156481 0.502704076002682 0.07975816967751931
0.5518742172543879 0.5007023271653848 0.08125540904512024
0.5771948728797814 0.4987597063002551 0.08268925141141961
0.00042238437738732 0.5606086022269667 0.09506878803539232
0.010337509713994093 0.5578966421082108 0.09506233249306167
0.04279703370200272 0.5551937544575518 0.09502999441240496
0.07548475932298203 0.5533948953932403 0.094347736642545
0.10823575879551525 0.5529110942683536 0.09258237538723227
0.14117036162064225 0.5531622188004195 0.08992455456667713
0.17973612920505988 0.5540706913558321 0.08603140528298309
0.22308275305413058 0.5539126418728794 0.08216430889460537
0.2674845302000823 0.5510053627043459 0.08041530382887047
0.3116648057558033 0.5474145997500727 0.07938871652837347
0.35925984611786227 0.542975061884831 0.07927406160262385
0.4077449448611088 0.538094588893947 0.08001332923934874
0.4545491742054969 0.5336898315999142 0.08091079186178916
0.4983840582373751 0.5301689554910944 0.08181325822310043
0.524957814235597 0.5282717697032153 0.08234060108532008
0.5506545903266531 0.5265772854161442 0.08272606746551135
0.5774309462282976 0.5249882271202424 0.08284697872550267
0.00032899428002663755 0.5917141773083145 0.09508219797549208
0.009076960812878242 0.5890021188381965 0.09507714292708665
0.0415114067675464 0.5862795704002148 0.09506043966463665
0.07383014831883868 0.5838592933224197 0.09485562963750763
0.10598921578008522 0.582725237573231 0.09370756521517801
0.13830897775431442 0.5824908842078451 0.09165201446755229
0.17558058085395623 0.5826893959702627 0.0887562670951069
0.2183899565193076 0.5803934299165376 0.08730232336315774
0.2616615535960264 0.5775724882493601 0.08612984978355193
0.30489982311365593 0.574165192871903 0.08554505534155582
0.35208269805345804 0.5700670449404514 0.08551905842770235
0.40082997599780223 0.5656079323176443 0.08585071760915639
0.4486401966308378 0.5616478095396337 0.08577929722254869
0.4937346114766695 0.5584311162645352 0.08521941249218103
0.5215318124573637 0.5567517070717859 0.08459359966315262
0.5486067143334545 0.5552944147799452 0.08366993817017243
0.5768078100902633 0.5538621742411443 0.0825590828955826
0.00024272568078829515 0.62282353022038 0.09509458673117031
0.007824489619765175 0.6201117110099876 0.09509075835860145
0.04024310311544421 0.6173889027225969 0.09507681058455911
0.07265492080032421 0.6146883342615034 0.09504766798699649
0.10474606438425589 0.6129293266634761 0.09439115988970624
0.1366644127580317 0.6121692726751289 0.0928984347583243
0.17333592808103243 0.6099868630352933 0.09221088394976991
0.2147785366100159 0.6075536171371155 0.09145183587098726
0.25692374438605314 0.6047377209505376 0.0908342085515558
0.2992133150663312 0.6015192329772321 0.09057521645904275
0.34572836738166607 0.5977886429613767 0.09054634423505215
0.39443614209901534 0.5937643395964664 0.09041033820298867
0.44257631364058925 0.5903020714909972 0.08945396554534082
0.48823706917160714 0.5876847939518636 0.08752058785855396
0.5168554139969243 0.5863730969935839 0.0858437038265085
0.5448233777166365 0.5850055753123109 0.08427491961324793
0.5739675779166961 0.5834498767080005 0.08290757841481704
0.0001662687603229416 0.6539355888823735 0.09510556758411988
0.006582793026981353 0.6512242571882609 0.09510279246680454
0.03898588386037992 0.6485021040789667 0.09509150438556885
0.07139214817872909 0.6457788596013613 0.095079072352866
0.10368362414246567 0.6433794049558503 0.09485490787180785
0.13602998472212044 0.6409021399327732 0.0946498842424498
0.1721550759611185 0.6384286909179121 0.09440410352272582
0.212555680933101 0.6358640806164346 0.09417185144424625
0.25360324521697275 0.6330830005201354 0.09396622050204047
0.2950423548992365 0.6300816988587375 0.09387651622835215
0.34053261595806816 0.6267923482457342 0.09372530097398633
0.38856930423727 0.6233124022991821 0.09305356458331507
0.43642546305461954 0.6203537981412273 0.09131428462645141
0.4819063967912026 0.6179309182129117 0.08881876271798862
0.5107032284166209 0.6164698221361321 0.08711852505344489
0.5389923062667176 0.6149468864497497 0.08550370030726008
0.5686401504067768 0.6132552784064437 0.08401988938615243
0.0015249946625923657 0.08007077930151654 0.13829199522814292
0.042367870293744364 0.07543992019544735 0.13334440452338564
0.09159320351155247 0.06905704717530886 0.1255791666127543
0.1430931402098919 0.06217687962667069 0.11585688573277914
0.18989737912212792 0.05563028919337809 0.10649461617904438
0.23344209412853476 0.04907347097500681 0.09814726545222924
0.2784889181678968 0.04435378868069591 0.09130887831015183
0.3207824643989359 0.044708673089039204 0.08691845197250843
0.36046314011437836 0.049441436448051615 0.08490738363959191
0.39995791006438985 0.05708170906444836 0.0846851945641544
0.4392558770470599 0.06658658703734432 0.08553542360878541
0.4771717821395226 0.07749307282795748 0.08724460725374349
0.5149868014219721 0.08739808385208252 0.08846729096831332
0.5513914238773242 0.09620332692045622 0.0901424262033327
0.5713560900513683 0.10011293854673706 0.0912485301240218
0.5903413335448249 0.10254475828092081 0.09239197490649113
0.6100504134128666 0.10302027138230155 0.09355733200252503
0 0.11828545310617622 0.13299022266340996
0.03871507507029435 0.11363536617321779 0.12672458680736365
0.09635097317489577 0.10783296342779392 0.11604531329632907
0.15448057961951428 0.09967977273901393 0.10396767450548688
0.2023764864205671 0.09017180451651292 0.09415083036553111
0.24294798189019257 0.07981223795868662 0.08659558123602328
0.28534978759464286 0.07016231715861973 0.08083741562127372
0.3262983398891672 0.0665190367652276 0.07777419781630228
0.3653831196844646 0.06812830406371179 0.07711609061204776
0.4040143928152827 0.07292899686017597 0.07816559836956889
0.4420199900908812 0.08012464372270503 0.08035778612660209
0.4791520028032898 0.08859275163624364 0.08294541070642444
0.5159101152530293 0.09637459653551217 0.0848231786974708
0.5515961920396092 0.10349699895502637 0.08704562851039385
0.5711282849108393 0.10650829683068906 0.08842981978404375
0.5896845574879717 0.10811481693595094 0.0898210732153088
0.6089316905474365 0.1077808828222805 0.09122549566265564
0 0.1600930181041769 0.12660082114953594
0.03230655614944848 0.15801866216637683 0.11906542721237826
0.09450590631563338 0.15581382519851078 0.10563664573792897
0.1635933081860758 0.15128437107615894 0.08933491935280989
0.21897057424254004 0.14256023763617404 0.07700973082141038
0.2591176219738014 0.13062208508699033 0.06880189929174876
0.298868955430416 0.11693100551359151 0.06314273242044546
0.33809022800511224 0.1094289971900358 0.061378137270721195
0.37641477287202835 0.10812574413927233 0.06262492151824356
0.41471608620976147 0.11084059542835396 0.06559171783733125
0.45212624955601166 0.11655344800376738 0.06978454941077712
0.4895064364462883 0.12332805328505168 0.07352453160086113
0.5258243660314511 0.129949706243054 0.07639414431651392
0.5609060699235191 0.13642435995291557 0.07963989746164138
0.5798248705481512 0.1391182271908398 0.08160222112793669
0.5975112604005293 0.14045312100013238 0.08356484457665436
0.6155308985056673 0.13991636759313977 0.08558341626923785
0 0.2012838936909181 0.12019828403407955
0.023972513742107505 0.2010332657453896 0.11225503013965277
0.0815564498417357 0.20089639636432702 0.09857963776433762
0.1520757415598004 0.19931182598656738 0.08113511867923343
0.21800690670101566 0.1936626766718974 0.06503313730383777
0.26448838407173053 0.18295956468820299 0.053826834238876284
0.305565820963315 0.16721770769898694 0.0462237602429282
0.34465118561481256 0.15586758726859296 0.04500131274755138
0.3826667937605778 0.15082193537995844 0.04814932451512781
0.42038464349215765 0.15057192061681818 0.053474954372346284
0.45821126524298705 0.15335173687806794 0.05918157610466518
0.4958653962980762 0.15764709557508505 0.0640488087134878
0.5315225616675474 0.1625032509181422 0.06820025138475592
0.5655343110316796 0.16755042699744044 0.07262506229500598
0.5839096091076134 0.16962833140506195 0.07522374062043204
0.6010432224903369 0.17054665786286663 0.07774929749239776
0.6185011439516717 0.16984548550115297 0.08027874640246714
0 0.24066846880966436 0.11446782259065169
0.016046620950903995 0.24146413561174107 0.10675262482426319
0.06717122177565074 0.242560560456211 0.09388345923301496
0.13041341610950344 0.24242526438974957 0.07745427389074909
0.19683455572258501 0.23940703755285572 0.06014036567557371
0.25122720564431295 0.23195932771903927 0.04587463274763608
0.29982763387745565 0.21805830216771163 0.03496196782197532
0.3416739668297121 0.20432940216029266 0.0324432543100572
0.3810908073240078 0.19556441840835034 0.03642312905309165
0.41987545516701136 0.19133188304949045 0.04270768802176498
0.45849357309967853 0.19048417295820116 0.0494252207669323
0.4965309371813813 0.1917492503375827 0.055208251514588164
0.5315347854198199 0.19435463167229494 0.06071630901364662
0.5645791175617056 0.19747697938657244 0.06634018215046603
0.5826743303787427 0.1987553048469862 0.0695564465067175
0.5997258772932711 0.19918677430325768 0.07257452655586197
0.6173355661085449 0.19839884758454943 0.07550113159435365
0 0.2801788878817596 0.10961166155257963
0.010026417039618384 0.2804396914165551 0.10278067088303822
0.05615705394190813 0.28196377572952924 0.09102517505007236
0.10992623394319109 0.2825355179886695 0.07638348541817613
0.17037662384795 0.28091331975891687 0.05993151143053302
0.2275382365205851 0.27578020749595483 0.04465124461977031
0.28402896206299516 0.265529847739352 0.03162571893508299
0.330329787103366 0.2521168847824221 0.02682549599319265
0.37256925795822193 0.24068860334773956 0.02902693375024018
0.4132024017679282 0.23285520590672898 0.0346205995332645
0.453205369013373 0.2283571500376612 0.04129686012121505
0.491765423565398 0.22650650527700097 0.047651609423885855
0.5266481511505531 0.22663185234606772 0.05423929925387643
0.559282849226777 0.22767397165731687 0.0608362992767268
0.5774739612128263 0.22806495884691885 0.06454998967187708
0.5945544960922368 0.22814721663626622 0.06824801418924607
0.6110912187483694 0.22851079061856694 0.07317697666481146
0 0.32108527262110753 0.10657711508377693
0.006994786341133205 0.32163785029970426 0.10064759881714835
0.048369222754424984 0.3240220620972494 0.09026753078049539
0.0948107188193121 0.3257571307536292 0.07761736977428907
0.14608396271319224 0.32584925154852806 0.06338099269902507
0.19963417390925248 0.32330031476501897 0.049045148552104595
0.2597825564105454 0.31624751786922184 0.03563369786499897
0.31232822186208914 0.3051784871959125 0.028235559086812592
0.3576614450154682 0.2929135359825216 0.02700613880346706
0.40041498114861823 0.28218370297336365 0.02998579003724545
0.4424750308540817 0.2739133598180036 0.03503410618873706
0.48197711502468293 0.2684415112982541 0.04151153514495419
0.5175593976077146 0.2653772946839074 0.04872031565440526
0.5505748643365769 0.26372468410236116 0.05592056353268186
0.5682569977600394 0.2633319863796088 0.06111274152995337
0.5846868118139865 0.2631528817896322 0.06653420249002198
0.6024189713487084 0.2626686281054 0.0723077290238667
0 0.3583276925635567 0.10543133170034394
0.006728973639955313 0.3588183500890741 0.10039815121597337
0.04473325644338686 0.3615502342288397 0.0914954213744138
