GTG Entry Level Skin Separator.cube
LUT_3D_SIZE 5
0.06437515081646773 0.09189157063551144 0.07429415632130565
0.22887128885499997 0.09189157063551144 0.07429415632130565
0.3933674268935322 0.09189157063551144 0.07429415632130565
0.5578635649320643 0.09189157063551144 0.07429415632130565
0.7223597029705966 0.09189157063551144 0.07429415632130565
0 0.24676470588235294 0.08235294117647059
0.18243025613513786 0.24808708769684235 0.08120725528870325
0.4666446151369579 0.2731305019264784 0.061553003055265496
0.6371589188328249 0.2814951333691699 0.05566863905325445
0.7571209296391367 0.273426016269742 0.06134021734926714
0 0.42176470588235293 0.08235294117647059
0.175 0.42176470588235293 0.08235294117647059
0.3560245505563053 0.42168138211800976 0.08120725528870325
0.5723354638200387 0.4202905362283232 0.07081161774374443
0.7565616876536116 0.4180890381848053 0.061553003055265496
0 0.596764705882353 0.08235294117647059
0.175 0.596764705882353 0.08235294117647059
0.35 0.596764705882353 0.08235294117647059
0.5296188449774727 0.5952756765391772 0.08120725528870325
0.7219991758634967 0.5855829068507628 0.07442572610898403
0 0.7717647058823529 0.08235294117647059
0.175 0.7717647058823529 0.08235294117647059
0.35 0.7717647058823529 0.08235294117647059
0.525 0.7717647058823529 0.08235294117647059
0.7032131393986402 0.7688699709603447 0.08120725528870325
0 0.07176470588235294 0.2573529411764706
0.175 0.07176470588235294 0.2573529411764706
0.35 0.07176470588235294 0.2573529411764706
0.5260549278514254 0.07238481438189719 0.256771913337039
0.7033540984276618 0.07461370841896145 0.2546887478733932
0 0.24676470588235294 0.2573529411764706
0.22887128885499997 0.25638770867404365 0.23879029435983787
0.3933674268935322 0.25638770867404365 0.23879029435983787
0.5578635649320643 0.25638770867404365 0.23879029435983787
0.7223597029705966 0.25638770867404365 0.23879029435983787
0 0.42176470588235293 0.2573529411764706
0.175 0.42176470588235293 0.2573529411764706
0.3560245505563053 0.42168138211800976 0.2548015497098707
0.6116031513952848 0.4180890381848053 0.20651153931359237
0.7718822016310463 0.4162184161673913 0.1903919218514758
0 0.596764705882353 0.2573529411764706
0.175 0.596764705882353 0.2573529411764706
0.35 0.596764705882353 0.2573529411764706
0.5296188449774727 0.5952756765391772 0.2548015497098707
0.731847960607292 0.5798030330155765 0.23032411453099771
0 0.7717647058823529 0.2573529411764706
0.175 0.7717647058823529 0.2573529411764706
0.35 0.7717647058823529 0.2573529411764706
0.525 0.7717647058823529 0.2573529411764706
0.7032131393986402 0.7688699709603447 0.2548015497098707
0 0.07176470588235294 0.4323529411764706
0.175 0.07176470588235294 0.4323529411764706
0.35 0.07176470588235294 0.4323529411764706
0.525 0.07176470588235294 0.4323529411764706
0.7 0.07176470588235294 0.4323529411764706
0 0.24676470588235294 0.4323529411764706
0.175 0.24676470588235294 0.4323529411764706
0.35 0.24676470588235294 0.4323529411764706
0.525 0.24676470588235294 0.4323529411764706
0.7007359567084397 0.24706584323891148 0.43145294219405333
0 0.42176470588235293 0.4323529411764706
0.175 0.42176470588235293 0.4323529411764706
0.3933674268935322 0.4208838467125759 0.4032864323983701
0.5578635649320643 0.4208838467125759 0.4032864323983701
0.7223597029705966 0.4208838467125759 0.4032864323983701
0 0.596764705882353 0.4323529411764706
0.175 0.596764705882353 0.4323529411764706
0.35 0.596764705882353 0.4323529411764706
0.5296188449774727 0.5952756765391772 0.4283958441310381
0.7565616876536116 0.5630475744431321 0.3514700755719192
0 0.7717647058823529 0.4323529411764706
0.175 0.7717647058823529 0.4323529411764706
0.35 0.7717647058823529 0.4323529411764706
0.525 0.7717647058823529 0.4323529411764706
0.7032131393986402 0.7688699709603447 0.4283958441310381
0 0.07176470588235294 0.6073529411764707
0.175 0.07176470588235294 0.6073529411764707
0.35 0.07176470588235294 0.6073529411764707
0.525 0.07176470588235294 0.6073529411764707
0.7 0.07176470588235294 0.6073529411764707
0 0.24676470588235294 0.6073529411764707
0.175 0.24676470588235294 0.6073529411764707
0.35 0.24676470588235294 0.6073529411764707
0.525 0.24676470588235294 0.6073529411764707
0.7 0.24676470588235294 0.6073529411764707
0 0.42176470588235293 0.6073529411764707
0.175 0.42176470588235293 0.6073529411764707
0.35 0.42176470588235293 0.6073529411764707
0.525 0.42176470588235293 0.6073529411764707
0.7 0.42176470588235293 0.6073529411764707
0 0.596764705882353 0.6073529411764707
0.175 0.596764705882353 0.6073529411764707
0.35 0.596764705882353 0.6073529411764707
0.5578635649320643 0.5853799847511081 0.5677825704369023
0.7223597029705966 0.5853799847511081 0.5677825704369023
0 0.7717647058823529 0.6073529411764707
0.175 0.7717647058823529 0.6073529411764707
0.35 0.7717647058823529 0.6073529411764707
0.525 0.7717647058823529 0.6073529411764707
0.7032131393986402 0.7688699709603447 0.6019901385522055
0 0.07176470588235294 0.7823529411764706
0.175 0.07176470588235294 0.7823529411764706
0.35 0.07176470588235294 0.7823529411764706
0.525 0.07176470588235294 0.7823529411764706
0.7 0.07176470588235294 0.7823529411764706
0 0.24676470588235294 0.7823529411764706
0.175 0.24676470588235294 0.7823529411764706
0.35 0.24676470588235294 0.7823529411764706
0.525 0.24676470588235294 0.7823529411764706
0.7 0.24676470588235294 0.7823529411764706
0 0.42176470588235293 0.7823529411764706
0.175 0.42176470588235293 0.7823529411764706
0.35 0.42176470588235293 0.7823529411764706
0.525 0.42176470588235293 0.7823529411764706
0.7 0.42176470588235293 0.7823529411764706
0 0.596764705882353 0.7823529411764706
0.175 0.596764705882353 0.7823529411764706
0.35 0.596764705882353 0.7823529411764706
0.525 0.596764705882353 0.7823529411764706
0.7 0.596764705882353 0.7823529411764706
0 0.7717647058823529 0.7823529411764706
0.175 0.7717647058823529 0.7823529411764706
0.35 0.7717647058823529 0.7823529411764706
0.525 0.7717647058823529 0.7823529411764706
0.7223597029705966 0.7498761227896403 0.7322787084754345
