GTG Skin Warmer V2_1 Teal Base XT.cube
LUT_3D_SIZE 5
0.005304841560701408 0.0840631407045097 0.09426192839720707
0.18911183241322915 0.06202788607332979 0.06895331015182393
0.35815940008664476 0.053335463454193294 0.06084551533554864
0.5123129676294319 0.08691766527778212 0.07545238083043226
0.6089304058823315 0.10173396597094878 0.08499351573770925
0 0.2435132994166589 0.08012819833890494
0.1807677078391298 0.24028581383822975 0.036750151895822654
0.3738271254781725 0.19910717222207777 0.023124024436364382
0.5293082784358051 0.19613791429631988 0.0548833012597509
0.6178717095646179 0.19996001371696706 0.07350638033253454
0 0.3950355144133043 0.08331263508310505
0.12255065390829638 0.40047619322705297 0.06136729191684141
0.3215529432419452 0.38729282946882304 0.033637634428994326
0.4930866331945234 0.3555313583146822 0.0485427474816344
0.584702244923517 0.34447179840665915 0.07622145321318434
0.00018774679927175013 0.5301641155796236 0.09472729296967292
0.11055845761701592 0.5259346981023859 0.090218366230008
0.2735108134641958 0.527367797826539 0.07380754209110962
0.45988814595166605 0.508901614399552 0.07604970746145348
0.5771948728797814 0.4987597063002551 0.08268925141141961
0.0001662687603229416 0.6539355888823735 0.09510556758411988
0.10368362414246567 0.6433794049558503 0.09485490787180785
0.25360324521697275 0.6330830005201354 0.09396622050204047
0.43642546305461954 0.6203537981412273 0.09131428462645141
0.5686401504067768 0.6132552784064437 0.08401988938615243
0 0.07016158377006489 0.26608116393422065
0.15408561606904256 0.0459729982949266 0.25350047894261574
0.3462004534854351 0.03872597283724838 0.21804146384874395
0.5223413291694619 0.0849522327375695 0.19348372558439933
0.6203546032393978 0.10474310319446213 0.19045724218237128
0 0.22156158523773473 0.24395590731425273
0.22230789329625003 0.22397129755569398 0.20139413622481997
0.43340518303482634 0.1857078697848386 0.15955494253873106
0.5843722775855273 0.19907957027629128 0.15335396408655932
0.6458337385052014 0.20809880638372055 0.16714127604244236
0.009014257145863597 0.38132437574475775 0.21877952900070335
0.16581534211702942 0.3915998554412842 0.18782459563377246
0.39308949865127385 0.38669195957466035 0.1341653848262385
0.5397813666516209 0.34926625363220315 0.13788285822847912
0.6097614864156472 0.3366713504775597 0.1611414191344064
0.00880931066940902 0.5194791683046585 0.21624709035229742
0.12191233482180155 0.5204385583766581 0.19981756629785877
0.30175597826969075 0.5186990012793063 0.17373812967797128
0.4950376832823204 0.5076229551771041 0.1491734370018916
0.6078806670194551 0.4951236004867135 0.14715199685520397
0.0002661933962673262 0.6418037545211838 0.21378004270192452
0.09796011059041414 0.6309744835122649 0.20587069036820585
0.254401383102062 0.6208738240624231 0.1948503249475146
0.4467782115706505 0.6155199759800125 0.16998593103902698
0.5963037786656386 0.606819759839895 0.14541656952936996
0 0.07859073131479317 0.4293388492401694
0.1285083611359449 0.07751524393486645 0.4177044899325104
0.2956814830381426 0.07371323713687672 0.40165653461972944
0.45552049670475825 0.07484131881457709 0.3876159626568193
0.5591900382124285 0.08601701037015716 0.37968849774478897
0.018391953242753188 0.20320693175426477 0.4089179135751707
0.17932235901255322 0.20734804259328896 0.38319652509334545
0.3638033560652443 0.19565137285344855 0.36044030418559786
0.48807169975191617 0.17574523876895262 0.35932175219877666
0.5730818595609376 0.1754245133162176 0.3596859074488689
0.046558763301284826 0.35978885592727894 0.38372388589992223
0.29704027781221815 0.3807958851371403 0.31574515908374295
0.5229983615041016 0.3865580828197168 0.2591594709460172
0.5607106444099385 0.33640964216379793 0.30321471764292185
0.6175562217602324 0.31416733996562757 0.3207128961972721
0.020833633272445255 0.508782076982045 0.3839516979764184
0.1498383998517156 0.502536062386321 0.35958107183637333
0.36639552337662906 0.5035883726693217 0.31376473177054415
0.5470852305231018 0.5008942031519152 0.27673619266278465
0.6596980462960297 0.4985999712100807 0.28651431884421147
0.0008547991200952474 0.6296605315793583 0.3852087446413037
0.09797226374895719 0.6182180640696802 0.37252889101124803
0.25857922831207625 0.6117613902236687 0.3530274546149661
0.4605554164950959 0.639000615311932 0.33389258395828864
0.6068584987529144 0.6490528634981007 0.352250498577715
0.00014938544458523582 0.08294282375130332 0.5743951135399449
0.11127458426511154 0.0846148607032105 0.56124285924507
0.266152458548764 0.08529144132963531 0.548732707211571
0.4251085599959301 0.08382268600269938 0.5407845350834204
0.5375741202376948 0.08304644238951592 0.5359688573551838
0.005907320253738343 0.1930342723255612 0.5605949583720226
0.1228994139222984 0.1906889373740728 0.5416289397447849
0.2845226573344021 0.18721299499674476 0.5228623236852771
0.43079030593843004 0.1739669783745876 0.5227271704041865
0.5319966186979714 0.16131688931140784 0.526477367380172
0.016803527936374893 0.3463062670279131 0.5443996073370344
0.14690809362301854 0.3442722116185627 0.5136808481854153
0.3623527871905541 0.3503509361206025 0.4623851631242084
0.471534070949236 0.3182963479277621 0.4899335775138186
0.5750875375557485 0.3066874835824422 0.523985030853866
0.006134962565274508 0.4998286047491173 0.5396247494562147
0.1119512260075744 0.49118942746638844 0.5194942626721045
0.28332178249916684 0.48566034864697766 0.4932611558699094
0.477467995408797 0.5018217029558546 0.5105806985770739
0.6005425148798593 0.5148118068410995 0.5447600686728831
0.000053022121730367683 0.6201931336787355 0.536199933576523
0.0838219505977852 0.6092035528011607 0.5251934240598728
0.2386656880415623 0.621894182779251 0.5309429115654449
0.45282704172073146 0.6560076618244732 0.5604850114470199
0.5954498719124447 0.6751287666789527 0.5877980549508441
0.000018238389801276554 0.0829039302107009 0.6661864052952743
0.10351423347296884 0.0829373702397627 0.6552842541279561
0.2528801208348907 0.08315605155265254 0.6440880952268871
0.4189131697814963 0.08299600803915821 0.633649776507195
0.5322909149770026 0.08295864409114342 0.6271885178439626
0.0000777123633077929 0.18803255554479886 0.6551729460019218
0.09971784451247476 0.18188767683212786 0.6422048597163893
0.2531043168002903 0.1770690914868825 0.6268546494531997
0.41132520763180164 0.16697857072885885 0.6213757127095979
0.5229448718371249 0.15908218990284517 0.6176629257516656
0.001482965154708846 0.3396784774617744 0.6434210271481182
0.10216099477073995 0.3328422825109153 0.6255537702222773
0.2621663477858905 0.3271998959536692 0.6042838053319828
0.42343032806973635 0.3141138879580709 0.6272442879958966
0.561129344900569 0.3328025020149178 0.6489100192979966
0.000050626114784057326 0.4950852938951064 0.6342283783127741
0.08777922948826711 0.485786387180726 0.6201665714966138
0.24239493068876702 0.48603545297546946 0.6184952217242258
0.4461261949167103 0.5148785321545968 0.6575320545733105
0.5892717656382469 0.5370195007396162 0.6791088552157856
9.002388495679476e-7 0.6150782248192636 0.6273087579373577
0.07750829377015124 0.604238466623758 0.6164470053208465
0.25330723223665874 0.6344492042682744 0.6466504639941614
0.46427436636310665 0.6705555040643812 0.6826497996800895
0.609957 0.6928555215686275 0.7050864509803921
