GTG Skin Warmer V2_1 Teal Base.cube
LUT_3D_SIZE 5
0.005726302593850779 0.07173652332990124 0.07994152787775555
0.20388314671551377 0.048187944627556184 0.0528975216926767
0.3864127298197149 0.03867234076376979 0.04399065239982144
0.549912277024679 0.07574031710672863 0.06084329983672626
0.6527394564468809 0.09184294463534509 0.07135890565476853
0 0.243761427853147 0.0646170311017438
0.18883567306177462 0.23885162330246756 0.019448128837659298
0.401701372993943 0.19588272198472986 0.004104981815993693
0.5671460197230447 0.19305848845367432 0.039183243040187325
0.6615835478128366 0.19718283913104942 0.059286229121123295
0 0.40741932544838116 0.06808934852296186
0.12546056182523946 0.4124353353527154 0.04520501925375326
0.34072189512731726 0.3976754308224231 0.015906202783179415
0.5302060659386959 0.3642873888922798 0.0315173845430505
0.6286177369989898 0.3523773161267752 0.06132852169154858
0.00020283659420436095 0.5535485469052659 0.08027761269146341
0.11592450105275896 0.5488819827763699 0.07590645843573596
0.2907690410723694 0.5499608689138387 0.05861864484257642
0.4938389970031812 0.5289323504916775 0.061340988347605284
0.6186131812876203 0.5173840475269931 0.06892460592316665
0.00017964206028558838 0.6872922678356679 0.08067575730316097
0.11201831814779038 0.6758684402410613 0.0804132002490522
0.27393765950279364 0.6646640677681587 0.07948987569518133
0.4698472453155126 0.6495416344718107 0.07728503730848187
0.6095196275027797 0.6401449430363816 0.0703255906408043
0 0.05617832097665655 0.2657103933083952
0.15912403275347342 0.027628939077234467 0.25386757089393586
0.3690225929595489 0.021014097883720464 0.21488979862430083
0.5588713027429342 0.07408855377678925 0.1878328050312775
0.6627929097758075 0.09554386670666323 0.18470722701099676
0 0.21766563427513957 0.24396019873254332
0.2209721928091073 0.21830189169998981 0.20068314034163345
0.4513848151215409 0.17858322190468545 0.15479931493244278
0.618434106838798 0.19620257216182668 0.14639321048184561
0.6857422879572789 0.20617597475403493 0.16050656195274735
0 0.39095180025364945 0.2170967350412996
0.16188784081579072 0.40034657790543565 0.18527328634255855
0.40463688296214984 0.39350993973814924 0.12841653566391698
0.5713059304775826 0.3554503697590764 0.12999271883009528
0.6518875785116509 0.3433908629249381 0.15332276299827277
0.0025574190844243824 0.5417552558959065 0.21314129818553398
0.11968733156437521 0.5420827836569 0.1967161028254639
0.31177006364014426 0.5386856900624278 0.16936315907178465
0.523942004178225 0.5253710442079033 0.1419431303299517
0.6475856836952376 0.5118387693554334 0.13883335122668744
0.0002875993481457198 0.6741778890284474 0.20889645669084062
0.10344670638827622 0.6626177347751636 0.20090781151788778
0.26866333596896014 0.6514768460989717 0.19004886435875326
0.47873432573512475 0.642991705596184 0.1625396631452875
0.6349570645637117 0.6306483952790586 0.13704855665573937
0 0.06458679882051183 0.44295168811923924
0.1289745097683665 0.06083452738125114 0.43308987891530737
0.3088233635724125 0.0561352044354728 0.4162538975728385
0.48729653625556696 0.05973029388652842 0.3986422996635662
0.6027716873931919 0.07407715005082044 0.38788581998276694
0.007746383864212908 0.19712939610391636 0.42401699088997874
0.16885057258377806 0.19798190015611913 0.4004992137155086
0.3735280345712736 0.1874333929725079 0.3727405145543133
0.5145963042804368 0.16728286152224842 0.36993981091438655
0.6134481711463661 0.1696067253573391 0.36725816045256304
0.034655069684097026 0.366633964928922 0.39765370328160693
0.2902958655105279 0.38469255292844057 0.32688020256213013
0.5370054960988431 0.39108017637507553 0.2616840601575048
0.5831553693472401 0.3391941760703933 0.3097549350599949
0.655945194297229 0.3181110424900861 0.3256622769159367
0.011405907331091958 0.5297275601461031 0.39655030883844383
0.14365571081430326 0.5214112090596338 0.3724221466301808
0.3759572261102165 0.5191243881986181 0.321484873585524
0.5687779108045674 0.5147957555909617 0.28079962227174643
0.6998933334522845 0.51443769815295 0.28730747362304254
0.00022809043466849225 0.6611044546536483 0.3943564848220476
0.09827261604814097 0.6489274971124 0.38314613078776827
0.2680204119960963 0.6410761527945429 0.36335290190222636
0.49081368568294326 0.6680420381941657 0.33953681842182387
0.6500844107400799 0.6782451476766045 0.35778788897750885
0.00016140121244552556 0.07037306875170943 0.598516287293453
0.11611359881732795 0.07059460801857993 0.5864652016322877
0.2808905007891059 0.0700913956567231 0.5745335678386975
0.4577634239868349 0.07054687379341015 0.5632213160013788
0.5807821686571759 0.07049418587755256 0.5569838858232139
0.0010925024661339602 0.18787344018572844 0.5861563812518408
0.12123395386300428 0.18345509807612895 0.5684775735425159
0.29396641753017905 0.17891658125061513 0.5489649077499023
0.45747029251390164 0.16579290492848298 0.5470601301295894
0.5742572999567621 0.15494770528648064 0.5468420164446763
0.008177047941972524 0.3532424999834809 0.5706208305801715
0.13828701858615353 0.3487016263295378 0.5416723579938164
0.3675654874113312 0.3536474985863487 0.48417471797433365
0.4938500355267621 0.32088555114716427 0.5121214964500178
0.6173902963077709 0.31136224196109596 0.5440069756031276
0.0011349022201203461 0.5205491734834886 0.563512510422515
0.10888906948641384 0.5103318350275742 0.5445505524741087
0.2902963086143296 0.502842716294217 0.5169132761117906
0.503865476631858 0.5198763366672553 0.5322639009228805
0.645416279483791 0.5354049124641643 0.5649537210190901
0.00005728779689432169 0.6508430960412948 0.5572531289276571
0.08759609502451801 0.6391057561299834 0.5468114971768977
0.2528654872410094 0.6528877851206423 0.5542805877555316
0.4883373354797852 0.6886921177526226 0.5829109328064117
0.6429093767694154 0.7098726131932294 0.612768259787066
0.00001970579053598876 0.0703276014782086 0.6976994137838377
0.11184068580042747 0.07036669368040206 0.6859128952412159
0.27281359067626043 0.0704305122594447 0.67407755532068
0.45259568907695746 0.07043523720152248 0.6625262595805164
0.5751007842446546 0.07039156214440587 0.6555529501716375
0.00008396406708942927 0.18391504118390392 0.6857960425541106
0.10417473086255011 0.17619179526626386 0.6738852056525879
0.2665119165318878 0.16970169941174928 0.6595128852369266
0.44236505354587297 0.16030845931780446 0.6508241924367796
0.564989286905695 0.15263951082940858 0.6452522053551069
0.00012436812136873467 0.3475217411039817 0.6739100143504043
0.1017194452029276 0.33875590008785567 0.6585082218305791
0.2712504800105549 0.3316331362325377 0.6371792861927957
0.45189456399050704 0.3186970658435359 0.6591096466811699
0.6057256788197584 0.34024041080211986 0.6786658628946316
0.00005458917851620447 0.5156703260727016 0.6631682567434738
0.08971128392860007 0.5053227457337195 0.6508489909096359
0.253798461826255 0.5051932901888302 0.6509806100097933
0.4812960388344744 0.5366100946003737 0.6877271718426908
0.6362677054064346 0.5607701213249754 0.7113766707699452
9.726717242180449e-7 0.6453199813854743 0.655694827284593
0.08374393059083918 0.6336049947566765 0.6439562704548629
0.2736854041990669 0.6662451246763412 0.6765885999810496
0.5016100395173779 0.7052426710117601 0.7154713004710854
0.6590339999999999 0.7293552784313726 0.7397305490196079
