GTG Skin Warmer V2_1.cube
LUT_3D_SIZE 5
0.005726302593850779 0.07173652332990124 0.07994152787775555
0.20388314671551377 0.048187944627556184 0.0528975216926767
0.3864127298197149 0.03867234076376979 0.04399065239982144
0.549912277024679 0.07574031710672863 0.06084329983672626
0.6527394564468809 0.09184294463534509 0.07135890565476853
0 0.243761427853147 0.0646170311017438
0.18755923742690245 0.23849095819584648 0.019533318885232236
0.401701372993943 0.19588272198472986 0.004104981815993693
0.5671460197230447 0.19305848845367432 0.039183243040187325
0.6615835478128366 0.19718283913104942 0.059286229121123295
0 0.40741932544838116 0.06808934852296186
0.12282263542583247 0.4121619708506471 0.04542553652915293
0.33917308280221103 0.3974444841119299 0.016019864964167883
0.5302060659386959 0.3642873888922798 0.0315173845430505
0.6286177369989898 0.3523773161267752 0.06132852169154858
0.00020283659420436095 0.5535485469052659 0.08027761269146341
0.11580852830245512 0.5488847753165661 0.07591936370372393
0.29015280796005 0.5499781900692896 0.05868920864974559
0.4938389970031812 0.5289323504916775 0.061340988347605284
0.6186131812876203 0.5173840475269931 0.06892460592316665
0.00017964206028558838 0.6872922678356679 0.08067575730316097
0.11201831814779038 0.6758684402410613 0.0804132002490522
0.27393765950279364 0.6646640677681587 0.07948987569518133
0.4698472453155126 0.6495416344718107 0.07728503730848187
0.6095196275027797 0.6401449430363816 0.0703255906408043
0 0.05617832097665655 0.2657103933083952
0.15593271093362895 0.026101174941530338 0.2547867942775315
0.3684263505844082 0.020653325238366972 0.21507662654952112
0.5588713027429342 0.07408855377678925 0.1878328050312775
0.6627929097758075 0.09554386670666323 0.18470722701099676
0 0.2157582730201452 0.24575924090709483
0.16752584087294747 0.20160114911696056 0.2141491634069317
0.4403315934312728 0.1736234938705452 0.1577423058709022
0.618434106838798 0.19620257216182668 0.14639321048184561
0.6857422879572789 0.20617597475403493 0.16050656195274735
0 0.3894394607893712 0.2201076772694965
0.10902970871045314 0.3941872429921042 0.19702811596949163
0.3705722231672349 0.387775301104805 0.13591478865455017
0.5702963924069991 0.3551791370037 0.13027199672612344
0.6518875785116509 0.3433908629249381 0.15332276299827277
0.00027875726419913303 0.5417918860852122 0.2136334542025351
0.10383931345003854 0.5423938643160825 0.20027019706944185
0.28810928927255874 0.5390912943012977 0.1750970915403401
0.5229149575064889 0.5253540308608186 0.1422258295323427
0.6475856836952376 0.5118387693554334 0.13883335122668744
0.0002875993481457198 0.6741778890284474 0.20889645669084062
0.10344670638827622 0.6626177347751636 0.20090781151788778
0.26664079634141236 0.6517561968496479 0.19056098558348658
0.47873432573512475 0.642991705596184 0.1625396631452875
0.6349570645637117 0.6306483952790586 0.13704855665573937
0 0.06458392202194554 0.4429547437455634
0.1203753223720139 0.05709288625097149 0.43695369467857254
0.2961752256814568 0.049431466363513546 0.4228659484586021
0.48651357628155695 0.059218865843456835 0.39913087319712637
0.6027716873931919 0.07407715005082044 0.38788581998276694
0 0.19308903606938 0.42983226794175017
0.106692433319418 0.17821515019908762 0.42766941517662693
0.2993528327842385 0.15691288598174605 0.4108145691947335
0.5033073020702159 0.16143828089643641 0.3767271590888111
0.6134005145089573 0.16957836688213818 0.36729103791767975
0 0.36178665429371354 0.411606602074407
0.09775247370993315 0.3554797107229335 0.40641833164969815
0.30922603120449393 0.34696392911557894 0.3732272142790398
0.5635374215027672 0.3333681750242669 0.3204729238966489
0.6554099579202353 0.31791280051423143 0.32600883708078093
0.00034423288143973466 0.5298040791885555 0.4006819673270903
0.09806184741039806 0.5215829750889531 0.3906681577773555
0.2790556515238917 0.518970399962269 0.3651037002978943
0.5569641596544674 0.514272511089775 0.2865325884070691
0.6998933334522845 0.51443769815295 0.28730747362304254
0.00022809043466849225 0.6611044546536483 0.3943564848220476
0.0947396434864589 0.6493366540688995 0.3845258783365558
0.25408590045467744 0.6428746868154156 0.36950114248870997
0.49065961794240126 0.6680704280704209 0.33961874230591016
0.6500844107400799 0.6782451476766045 0.35778788897750885
0.00016140121244552556 0.07037306875170943 0.598516287293453
0.11580581375381933 0.07046524473840236 0.5866454877794861
0.27789606040127635 0.068602600405489 0.5765675261019645
0.4577634239868349 0.07054687379341015 0.5632213160013788
0.5807821686571759 0.07049418587755256 0.5569838858232139
0.00032064722996422704 0.18765636180183393 0.5865646860580189
0.10715669968455271 0.1789900599501907 0.5765550924799692
0.2681643610115346 0.16899438500924674 0.5661594906715888
0.451812438797527 0.16304265024840325 0.5516131769862773
0.5742572999567621 0.15494770528648064 0.5468420164446763
0.0003905206797907225 0.35212992772282725 0.5746680308992582
0.09985290662275334 0.34241831605197603 0.5632313138780898
0.26225921713740186 0.3321479272617871 0.5520859586662437
0.4706869782858238 0.31420314653113185 0.5303784693400878
0.6173902963077709 0.31136224196109596 0.5440069756031276
0.00022638803522091793 0.5205475184023673 0.563975871143739
0.09287048146138056 0.5101751250388019 0.5532849663382363
0.24975987672025896 0.5021263929175216 0.5424027801437975
0.497722384955705 0.5197792271734274 0.5372401496161584
0.645416279483791 0.5354049124641643 0.5649537210190901
0.00005728779689432169 0.6508430960412948 0.5572531289276571
0.08757916403917979 0.6391075387291782 0.5468205506506023
0.25184467648897796 0.653029137865039 0.554930600809584
0.4883373354797852 0.6886921177526226 0.5829109328064117
0.6429093767694154 0.7098726131932294 0.612768259787066
0.00001970579053598876 0.0703276014782086 0.6976994137838377
0.11184068580042747 0.07036669368040206 0.6859128952412159
0.27281359067626043 0.0704305122594447 0.67407755532068
0.45259568907695746 0.07043523720152248 0.6625262595805164
0.5751007842446546 0.07039156214440587 0.6555529501716375
0.00008396406708942927 0.18391504118390392 0.6857960425541106
0.10405219168696145 0.1761527508337621 0.6739660435271899
0.2631424263021428 0.16841550594955393 0.6620764396982424
0.4423627461855145 0.16030734376721928 0.650826329706391
0.564989286905695 0.15263951082940858 0.6452522053551069
0.00012436812136873467 0.3475217411039817 0.6739100143504043
0.09621155742071563 0.33782740089192753 0.6620611164745965
0.2531437318561131 0.32788579197910217 0.6506654269003961
0.4501790590159104 0.31822411174413606 0.6607337416943894
0.6057256788197584 0.34024041080211986 0.6786658628946316
0.00005458917851620447 0.5156703260727016 0.6631682567434738
0.08889026972883013 0.5053097859941974 0.6513664533807512
0.24843841334649452 0.5050964832505053 0.65495745417796
0.4812960388344744 0.5366100946003737 0.6877271718426908
0.6362677054064346 0.5607701213249754 0.7113766707699452
9.726717242180449e-7 0.6453199813854743 0.655694827284593
0.08374393059083918 0.6336049947566765 0.6439562704548629
0.2736854041990669 0.6662451246763412 0.6765885999810496
0.5016100395173779 0.7052426710117601 0.7154713004710854
0.6590339999999999 0.7293552784313726 0.7397305490196079
