GTG Skin Warmer V2_1 Teal Base.cube
LUT_3D_SIZE 17
0.005726302593850779 0.07173652332990124 0.07994152787775555
0.05245562547356481 0.0677828791211275 0.07492474616402443
0.10305919111757977 0.06182318826822829 0.06786352321005157
0.15531350628248458 0.054986602098914664 0.05987622314181212
0.20388314671551377 0.048187944627556184 0.0528975216926767
0.25093264183938807 0.041371974599306686 0.04704341181218598
0.3004599010000919 0.03554965925351136 0.042758878620736906
0.3449961148096576 0.03491572817684328 0.042087387640793575
0.3864127298197149 0.03867234076376979 0.04399065239982144
0.42796136584933236 0.04574085973426918 0.04760839253921067
0.47004762521621346 0.05458544397681142 0.051639467208731554
0.5099911770947005 0.06552502048864864 0.05664928872708927
0.549912277024679 0.07574031710672863 0.06084329983672626
0.588382002006522 0.08479929705732658 0.06493132158025855
0.6098258472664917 0.08884722681593682 0.06722916071349469
0.6306127248436617 0.09137314230559603 0.06936643043503579
0.6527394564468809 0.09184294463534509 0.07135890565476853
0.0021910877965660544 0.11519981768984118 0.07578926202849502
0.04721184720410431 0.11088765908529813 0.06953281253834438
0.10282462819156185 0.10474134383886301 0.06028644513244867
0.1601605768958117 0.09652129139414796 0.050539777681657315
0.21115635614122585 0.08675852529860498 0.04287632116739275
0.2577297684161083 0.0758386468108662 0.03700097813827876
0.3055177324818787 0.06559368502224609 0.03380038003609087
0.349857625816545 0.06076266611573615 0.03427069621082377
0.3913113178666298 0.061108987435989574 0.03750876424532317
0.43241879976100916 0.0650491606879819 0.042388643345930795
0.4734168628400446 0.07140072762175578 0.04779967473126448
0.5126446653699132 0.07983478745973333 0.053763538766825825
0.5517715602619682 0.0878144731205465 0.058551372085725605
0.5895985563474878 0.0951086676650591 0.06317904358905352
0.6105980595463804 0.09820298122784352 0.06576096318973312
0.6308877807810237 0.09983287042147486 0.06816698914224803
0.6524093474431751 0.09939528422003209 0.07044347854963633
0 0.15925299726456996 0.07139247258083878
0.03842245587457647 0.15720387669555877 0.06416136875989098
0.0955337237617009 0.1537582386449192 0.05299276729619354
0.15863260171291188 0.14795139758159861 0.04067114645789401
0.2157742370664181 0.13903402521618383 0.030448735511997442
0.2642254378015127 0.12748429629236305 0.023399111568132562
0.3129966425005342 0.11439769804681585 0.019461863905360685
0.35800287561302135 0.10626283244932806 0.020584593598130915
0.4002424833790158 0.10382948852010569 0.025280839303753463
0.4420545209593463 0.10534452072242859 0.03161125375889735
0.48214367435234956 0.110457350252249 0.039346146318340575
0.5219858449147617 0.11705571161673171 0.046316660749037286
0.5609041066462195 0.12379921190071598 0.05199701748359533
0.5982725745658886 0.13040850612115287 0.05762371059420182
0.6187219461009409 0.13317970758275563 0.06075940227055953
0.6382144403284966 0.13455106187905647 0.06370804641961252
0.6585869524494427 0.13394230727121592 0.06656801967849506
0 0.20242444381552613 0.06751983423485128
0.02823798406807185 0.2021262069496296 0.060134188905390476
0.08176359618323557 0.2007033577767899 0.048556644299736704
0.14539561192221784 0.19740946521035252 0.0347934944070616
0.2076999599828413 0.1906747136842267 0.022314648701714995
0.26123812551329945 0.18036964353840157 0.01278079122173318
0.31405765105725125 0.16621669754334825 0.006628915179648358
0.36095826520509083 0.15491203082183522 0.007564402660356894
0.4044892601520359 0.1489804184972794 0.01335080790207037
0.44645204457201876 0.14768652574670188 0.02172192084608717
0.4874917672610541 0.1498621199506561 0.03070521957290883
0.5280538461355148 0.15386316320860435 0.0385517576895635
0.5663283944432647 0.1587078596488226 0.04535849270789681
0.6031095048770462 0.16390137744562547 0.05212291895828729
0.6231016825381386 0.16603636563995397 0.05585999703241276
0.6420927934068568 0.16697475856325247 0.05934860825422949
0.6619111755765321 0.16619137787527105 0.06271206913419895
0 0.243761427853147 0.0646170311017438
0.019058392683043556 0.24460807145873945 0.05764693056425305
0.0677272064960595 0.24495971522681492 0.04631434924958801
0.12640760723857353 0.24323888435542845 0.03303959848240928
0.18883567306177462 0.23885162330246756 0.019448128837659298
0.24662850018735508 0.23109592681875837 0.007790902601350019
0.3055851634729209 0.21829995921989664 0
0.3559130778738973 0.20513018302228778 0
0.401701372993943 0.19588272198472986 0.004104981815993693
0.4452805599052747 0.190980435015802 0.013140871422519414
0.48784866774370617 0.18962459636291715 0.022689966569657466
0.529237187519209 0.19054657087367646 0.031161338067022672
0.5671460197230447 0.19305848845367432 0.039183243040187325
0.6031788828303475 0.1962445753897764 0.047048963719428794
0.6229534986652804 0.197533540146734 0.05137251030280552
0.6418620753568021 0.19793641000972984 0.055345340089003874
0.6615835478128366 0.19718283913104942 0.059286229121123295
0 0.28607521834885186 0.06269869224637414
0.011745415912320532 0.2871387268213149 0.056457624956265814
0.05678800200646636 0.2874804477392124 0.046550979509863546
0.10872970961326775 0.2867987064714547 0.0343909073636624
0.16686446420382553 0.28396422211468586 0.021080930742122448
0.22513368040716417 0.27819788595592404 0.008746255107574805
0.289356260320823 0.26747688702452566 0
0.34385733557818887 0.25454533036906796 0
0.39246060634162505 0.24308561028153408 0
0.43850593778767255 0.2349265818909935 0.0070776553690025095
0.48313616728029407 0.23008908552383828 0.016122224963564788
0.5254831881358105 0.22792637339039812 0.02489884575256695
0.5634809267798234 0.2278651519978564 0.03385904992669479
0.5992397382181516 0.22885070828903667 0.04261284832156868
0.6191421110718154 0.22919182051734993 0.047409771756024385
0.6377581042486712 0.22937183173995074 0.05234662326080397
0.6561145662305978 0.22972590796895 0.058422061753499586
0 0.3305246210777309 0.06252410438455075
0.007880950815382724 0.33090755073515343 0.05790029194920474
0.04881198340847385 0.3323034313851583 0.04938707380210186
0.09531141247258614 0.33311783520525823 0.03880883089419723
0.1465971511827181 0.3323198928384521 0.026995111652707134
0.2011784133456744 0.329110544489807 0.015275892335555426
0.26608200036331076 0.3217516689914342 0.004068413964548491
0.3249853085991158 0.31068405737479576 0
0.37662205939997845 0.29853112699207063 0
0.4253913657140099 0.2877218770479343 0.00438838382604162
0.4728669400174377 0.2792812217488572 0.011300294739448796
0.5166352853286318 0.2734979627299333 0.019972009835743258
0.5555218866717617 0.27008690564867166 0.029406654994483514
0.5917689181517182 0.2681757061598677 0.03868006116054391
0.6106947278484647 0.2678238173070662 0.04545337449319934
0.6286412483247708 0.26759433175664077 0.052082150135171826
0.6479445848551236 0.266968584585833 0.05831871419955155
0 0.37016110599266766 0.06471118469676368
0.006958246598129177 0.3705418208123606 0.061154049485086195
0.04511142215164882 0.3725229514126261 0.054115713988307786
0.08721811337575977 0.3742266405867047 0.04531614739691718
0.13369082065232296 0.3748245545212254 0.035236138043979286
0.18375487666354187 0.37321488258758256 0.02527913254941752
0.2452714841926933 0.36832439799354827 0.015423241569188029
0.3047837700673495 0.36048530127284534 0.008590025383212619
0.3588676522444533 0.350721271016034 0.005896769268497731
0.4091523732453802 0.3403204917924824 0.006856301248075328
0.4585934326667756 0.3306869893962034 0.010952962992927364
0.5039865930250955 0.32275143515384386 0.01849089567161544
0.5443615575474275 0.31694436135403703 0.027363671793274296
0.5792273823734586 0.31330434592444023 0.03945022612728496
0.5986672089280894 0.31178809534361734 0.046625580374846286
0.6175953314951557 0.31046542351851986 0.053148691959977484
0.6379695198698201 0.30901354680526927 0.05929000006125299
0 0.40741932544838116 0.06808934852296186
0.007589446499804969 0.4075817071856051 0.06546569473972172
0.044081799824239314 0.40972841262313575 0.05981521210984722
0.08280201710863273 0.41195150979650486 0.052667267506412783
0.12546056182523946 0.4124353353527154 0.04520501925375326
0.1715828319605585 0.4115656464081708 0.03747392811308567
0.2285150579567488 0.40914042057643835 0.028585550055769408
0.2862106201036049 0.40439537862054953 0.021011172723300598
0.34072189512731726 0.3976754308224231 0.015906202783179415
0.3928314779029053 0.38959182576529205 0.01347162758294157
0.44332659177437717 0.3803604237378547 0.015367163128448613
0.49003827768491465 0.371641055763908 0.02099848793925286
0.5302060659386959 0.3642873888922798 0.0315173845430505
0.5663320097038553 0.3590044039040427 0.04294672737758952
0.5870360455919322 0.35654710290123304 0.049478660973892356
0.6072860050153863 0.3544173127560362 0.05531248593477249
0.6286177369989898 0.3523773161267752 0.06132852169154858
0 0.44594589316015604 0.07211490487915187
0.009108073581488648 0.44564857052274287 0.07024731802164609
0.044313662391464885 0.4473739683940509 0.06596045503268225
0.08176884800349565 0.44775470602172246 0.0615845636306997
0.12103946814848657 0.44827489597686754 0.05613460946073489
0.16319816185038435 0.4484047612736024 0.049801771784021565
0.21530017232826967 0.44785435525809597 0.04194988602074955
0.27007021356754746 0.44575124185888754 0.03409971561581114
0.32355149321885684 0.44190648578961234 0.02738789523073447
0.3760411114987122 0.43583003912115525 0.02354018627240609
0.4282077953307404 0.42794470384657274 0.023434812484733007
0.4757569399263477 0.41877152580711463 0.02989610690267433
0.517789378174243 0.41087710411105677 0.03883283821990418
0.5559951966041884 0.40483479205438233 0.04801903436769551
0.5782729315106019 0.4018690326398837 0.05315804446988549
0.5996836079690305 0.3992494016227594 0.058276133596865315
0.6220916082207527 0.39673195875220935 0.06377516907755117
0 0.4856233685276419 0.07573621150424865
0.01091105125215843 0.4840077760899925 0.07493125523373073
0.04606516086185948 0.48324848889655814 0.07303972590881024
0.08191681977492847 0.4835786658444077 0.06997798825803359
0.11896847880589571 0.4844931757245708 0.06578148915100757
0.15779621697466856 0.4855094666007871 0.06057000387454692
0.2052144207000432 0.48663925602758623 0.0535793502838585
0.2567510537981227 0.48664205614623823 0.045992291432411084
0.3085295309210471 0.48452054300688263 0.03960015804590124
0.3603144650268604 0.48028122386496547 0.035267615070991756
0.4127469158493397 0.47250168918480173 0.03685637995410629
0.46284852299096196 0.46437533499369815 0.041611799070922294
0.5079651648100035 0.4573263969386449 0.04761271708972179
0.5488401577579524 0.45173645133794693 0.05356176011646376
0.572496850545178 0.44873920174136755 0.05758292009421205
0.5951919918726785 0.4460268712033563 0.06174168512248263
0.6189805466267876 0.4434003230334564 0.06616410281427584
0 0.5256924686644605 0.07916813970776161
0.012250853006545761 0.5236008630824239 0.07883408621824614
0.04706070784640678 0.5221613894765961 0.07791886041441046
0.08166692896748776 0.5221193045188194 0.07589593925186922
0.11696813923780924 0.5230417230762507 0.07268583623594303
0.1537484596570595 0.5242944445611919 0.06845050532884117
0.19808047769007225 0.5257830579688281 0.0627726497303693
0.24705768061965705 0.5264500594614736 0.056457132091127724
0.29684898343702093 0.525522713733184 0.050674435231266496
0.347145909567262 0.5203829683773451 0.049493319376334166
0.3995512781323873 0.5139246440093844 0.05050664658462517
0.4513017470333017 0.507378074280492 0.0529278446939261
0.4993311026671962 0.5016029108423574 0.055933427867527
0.5428526861848321 0.4965930213745198 0.059791656197455016
0.5684077818229942 0.4938457308633142 0.0625012479666127
0.5929362125828342 0.49135310355023115 0.06525917093415126
0.618570471278926 0.48895010550313167 0.06808390250057071
0.00020283659420436095 0.5535485469052659 0.08027761269146341
0.012062324270268453 0.5511304932412348 0.0801226909819713
0.046934545597217575 0.5491234524763738 0.07970164474891284
0.08140742412845085 0.5484269063573933 0.07835895425575912
0.11592450105275896 0.5488819827763699 0.07590645843573596
0.15157270439944254 0.549851806418389 0.07245067390765414
0.19426477290768518 0.5512509116955524 0.06762154611413136
0.24189402469903037 0.5522020013659453 0.06195971898242754
0.2907690410723694 0.5499608689138387 0.05861864484257642
0.3398994627085356 0.5454151257523128 0.057711802604602715
0.3921303353590832 0.5400358065658923 0.05792945076704238
0.44455290681098153 0.5343047083197379 0.05925038601202874
0.4938389970031812 0.5289323504916775 0.061340988347605284
0.5389091981096796 0.5243101675332287 0.06390526476522763
0.5657463772505038 0.5217886914692861 0.06565219690629091
0.5915984435175687 0.519524287247568 0.06734484560800381
0.6186131812876203 0.5173840475269931 0.06892460592316665
0.00045633935216552655 0.5864449942416575 0.08064373944273624
0.011168451705974847 0.5835126169003132 0.0806381197483946
0.046217680481385415 0.5805853353537861 0.08060974960402599
0.08089951083078996 0.5786364728768646 0.07996326887860444
0.11525862833483948 0.5781096772336995 0.07820347530881777
0.1498944343979935 0.578371656740489 0.07547453606756613
0.19095268836038493 0.5792946683152044 0.07139079683243296
0.23752437543276275 0.5790047850091635 0.06731711431699662
0.2853681133975526 0.5756876448656212 0.0655416005134537
0.3334083918092766 0.5716222520387997 0.06448162885024956
0.3853848701903182 0.5665318133057486 0.06440827596119258
0.4380655400887594 0.560837958272653 0.06532992196760483
0.4883413309676376 0.5556285876354959 0.06649996180745066
0.5347672719182895 0.5514092315193974 0.06774595514258687
0.5628533034575842 0.549138059140344 0.0684683512446678
0.5900530910647165 0.5471375719819144 0.0690042320081328
0.6185117687554298 0.5453192660267884 0.06921129369968601
0.00035544689669753365 0.6200566380332595 0.08065541316973844
0.009806735531472776 0.6171244497212587 0.08065101259741358
0.04484805380040987 0.6141762322904462 0.08063647200316881
0.0797630223370809 0.6115543088190375 0.08041890416493132
0.1142537064189946 0.6103292366112383 0.07921718342527787
0.1487008582587074 0.6100831150653858 0.07706655569320797
0.18851562586180898 0.6102855101306235 0.07401661296586093
0.23420463238915304 0.6077255627609485 0.0725754550727676
0.2807304765614538 0.6045388649519712 0.07141051847665406
0.32758154525106575 0.6006854473510236 0.07083052567159401
0.3787816426794573 0.5959442374267938 0.07088433282338072
0.43133468551287224 0.5906408638527563 0.07142461779900053
0.48226677747863844 0.5858148145078137 0.07163352586808608
0.5299033810026692 0.5818153981197636 0.07135285264007857
0.5592274902613676 0.5797028200149069 0.07086669005863085
0.587814094392188 0.5778836731925963 0.07003114930488566
0.6176848156626542 0.5761604268253675 0.06895598918612705
0.0002622454323933366 0.6536728816497405 0.08066619801536856
0.008453692050988183 0.650741274911682 0.08066286527395082
0.04347857563364791 0.6477933435886124 0.0806507232836988
0.07849496153213266 0.6448690231091366 0.08062240714945978
0.11316379238246195 0.642962147395274 0.07991625086301622
0.14764501246583026 0.6421350665640573 0.07830646283086584
0.18712735354589638 0.6397767517664487 0.0775867914796468
0.23164011106031643 0.637108954499076 0.07682759362202873
0.276994366704624 0.6339685419426042 0.07622983947225893
0.32265992170734886 0.6303556960212071 0.0760024892229506
0.37283754669221225 0.6260405115111133 0.07607645858140943
0.4249549941479537 0.6211969623710976 0.07616594283228371
0.47606015807090063 0.6168640937725057 0.0754532594249892
0.5243229623246878 0.6134403536600399 0.07370010330772492
0.5545123934971727 0.6116662430935981 0.07209789547997195
0.5840007839214156 0.6098707912674629 0.07059542339173569
0.6147750879174949 0.6079239771784811 0.06928518921659495
0.00017964206028558838 0.6872922678356679 0.08067575730316097
0.007112237717117909 0.6843615211531081 0.08067334144219128
0.042120948293527936 0.6814150244586769 0.08066351471767655
0.07713213630218599 0.6784668770635726 0.08065269221916949
0.11201831814779038 0.6758684402410613 0.0804132002490522
0.1469627981010063 0.673185926802582 0.08019443208452977
0.18598851179581824 0.6705072541161268 0.07993179920046607
0.22962933960680107 0.6677250935460146 0.0796861005436113
0.27393765950279364 0.6646640677681587 0.07948987569518133
0.31863143699224616 0.6613320271763975 0.07943461193437129
0.3675674995770944 0.6575620585724916 0.07937281968945288
0.4189449792527092 0.6533384411376453 0.07886856413279861
0.4698472453155126 0.6495416344718107 0.07728503730848187
0.517999887948697 0.6462956690570463 0.07491100387034827
0.5484011449195201 0.6443171004041346 0.07328610655465448
0.578232626100235 0.6423012889057503 0.07174346686778255
0.6095196275027797 0.6401449430363816 0.0703255906408043
0.0016460744300657048 0.06743517551645144 0.12747673075089508
0.04566226521095177 0.0625095076699788 0.12222163710525462
0.09814807268608106 0.055534730505120325 0.11404874705772189
0.15315110214151761 0.04805947742245271 0.10375022070429678
0.20374263982386845 0.041076968458627953 0.09364553883109035
0.25130155440334867 0.0341123169738657 0.08446230217786178
0.3004234588409639 0.028993693260145715 0.07687437236901748
0.34609865050462546 0.0293581589831892 0.07211372258476302
0.388699868209585 0.034575550604297435 0.0700549579907545
0.4308806460254489 0.04300002510450978 0.07000890956925207
0.4726067267255226 0.053479586221575365 0.07118739440707923
0.5126054096596042 0.06548394097874068 0.07333874468062435
0.5523677139320026 0.07637822761894134 0.07496318002673308
0.590674617257404 0.08601458998156492 0.07700740262796596
0.611809663508246 0.09026408365354244 0.0782731308407071
0.6321068083447238 0.09287556204707517 0.07950750084693595
0.6535029360023202 0.09331937746916437 0.08066849330853605
0 0.1086765668037879 0.12178507342164137
0.04075155009725955 0.10343164510010104 0.11528191204909229
0.10081959549161201 0.09672446611495383 0.10438154554817969
0.16247048926803498 0.08783604272538577 0.09175303485944676
0.21462228495494878 0.0778233620263752 0.08110354704063333
0.25991616079333835 0.06705087600996398 0.07254842758791037
0.30717456276237404 0.05688209427174351 0.0658507777611044
0.35180561167064495 0.05301344491044738 0.06239259650477018
0.3937777833143959 0.05483275643853327 0.06177622461898488
0.43503147768266726 0.0601627973148074 0.06309181635802066
0.47537287760509783 0.06812033223068671 0.06570792739771902
0.5145511709309987 0.07746491212820793 0.06879286595437971
0.5532036151622637 0.08604906887144693 0.07111133639891778
0.590756028417869 0.0938618316612653 0.07373685926609881
0.6114383228260762 0.0971418549271023 0.07529635850393696
0.6312841842204541 0.09886623282511597 0.07679210346950857
0.6521886583921632 0.09844408666785509 0.07820544176848053
0 0.15356713288686621 0.11498759469532724
0.032116216759278796 0.15079697474171125 0.10726231696402388
0.09628882638258912 0.14775341003642187 0.09365112432783691
0.1690359889239214 0.1427263643564817 0.07689139054319523
0.2287967208680736 0.13358089808302667 0.06380747999032142
0.2738556046280708 0.12115468657160981 0.05446177590689553
0.31969586103081693 0.10702193036327803 0.047469095291818496
0.36352993581967374 0.0993054237726061 0.045131815113251886
0.40509092989134815 0.09809600867486067 0.046461316663194197
0.44599341157340294 0.10115871999960252 0.049835398827557206
0.48562517597552407 0.10746516060988259 0.05461605113444922
0.5250135930203903 0.11492195272500262 0.058945733444112164
0.563137142256652 0.12219613428002114 0.062335751911949455
0.5999629066863978 0.12926682633355266 0.06607077682859028
0.6199729819525888 0.13218730003900322 0.06824495496334862
0.6389043203675687 0.13361126703379778 0.0703369831514658
0.6585504085955969 0.13297632924200736 0.0723793339728094
0 0.1977907594166418 0.10816809632389605
0.02193146497169801 0.19694243235423672 0.09999695022444585
0.08137790133401052 0.1961195098169308 0.08598486618259349
0.15536319611284946 0.19405846966580587 0.06814125447168631
0.2257181593078589 0.18806885130338719 0.051441785812430287
0.277153174408457 0.17696480534222522 0.03910379661466859
0.32469172506622573 0.16068917109933023 0.029884624286297276
0.36926692798571475 0.14908537814995926 0.027919538331394746
0.4110428628177876 0.14398932104588164 0.03117146616181797
0.4515998283029421 0.1439362188092721 0.03703134691071395
0.4917760343676068 0.14706205380776782 0.04340841031648836
0.5314923137981157 0.15178655867709187 0.048927615403303225
0.568956046184047 0.15710063216170325 0.05367050985080538
0.604680322788872 0.16258979237719148 0.05865069802541092
0.6241416912716019 0.16483367802889823 0.06149268850583753
0.6425167095883313 0.1658083229856143 0.06417232994757821
0.6615930982791677 0.1650123537395595 0.06674636098743164
0 0.24019552176103115 0.10202900682857277
0.01285041676869017 0.24057339087643603 0.09402678746055658
0.06564311852920168 0.24114052564804148 0.08068933667459716
0.1319964001995326 0.24052145901153887 0.06373724094251455
0.20264360719702085 0.23710413802847188 0.045812006456530226
0.2618732541552129 0.22931991327670467 0.030570745852773855
0.31690039061107 0.21498004368235207 0.0180925752038191
0.36459705715129065 0.20083723909068513 0.014707852510944149
0.40840782009123533 0.19186521730624678 0.018777935589019832
0.4505800985436537 0.18761756790817266 0.025584120232931672
0.49199033199942194 0.1869017846566398 0.032966499853145356
0.5322851904190908 0.18833128210298616 0.03941676169384871
0.5691797232273775 0.19117743300758672 0.04557479233358135
0.6040068314654697 0.19456213230367303 0.051802534484550064
0.6232307201210043 0.1959391056208617 0.055290899169324455
0.6415531776803021 0.19639499661184945 0.05849074624070399
0.6607831926618594 0.1955261882695077 0.06149504649116122
0 0.28286197356018533 0.09679716118581308
0.006173349642993579 0.2827700760207084 0.0896770140110421
0.053781114968278705 0.28388343005200445 0.07741590655128744
0.11025126738988321 0.2840567968463351 0.0621046413957559
0.17453062093714977 0.28199610472315895 0.044940439168447824
0.23626313079482045 0.2764491267765131 0.02880313009113119
0.2987662325356944 0.2657869099569146 0.014544631255888922
0.3508933539032084 0.25187281706786907 0.008866847242971381
0.39807864118927894 0.24004325224354153 0.010969770252095376
0.442904907535041 0.23203033495504674 0.016921434602095064
0.4863580584947156 0.227473206600052 0.024152196600077946
0.5275688878574666 0.22558120088140793 0.031134975929866346
0.5645005094119059 0.2257274006943907 0.03840755648809397
0.5990525592881478 0.226853258766565 0.04564231766389763
0.6184475488990236 0.22727377978308763 0.049652682715093134
0.6368073456492123 0.22736062030990004 0.053589730670757084
0.6546961290543805 0.2277469340934009 0.0588107092323195
0 0.3270942292807795 0.09353816458286886
0.0028501782834739783 0.32742285356128165 0.08733444868159672
0.04551648620307495 0.3295777001450917 0.07645977546390975
0.094254560366647 0.3310839535661834 0.06313132975133529
0.14878366845594262 0.3308789081549488 0.048107543092663796
0.20637113052669148 0.32793856944529487 0.03296207160155118
0.27190060379952835 0.3203634370861422 0.01865141141048307
0.3300267696868627 0.3087215996505871 0.010517277416773321
0.3806091633992628 0.2959030716475983 0.008926154998398543
0.4283110698255316 0.2847915062784385 0.011937081585148552
0.4748291986693156 0.27630009086507973 0.017265094979779842
0.5176028860888638 0.2705914721805033 0.024276696318444015
0.5555032166414062 0.2672952800198995 0.032167016608693214
0.5906349028964383 0.26550796819621525 0.04001592645975427
0.6094874754002232 0.2650817696223435 0.04562949566742941
0.6270804232216675 0.26488848475579013 0.05145461346694558
0.646219919002775 0.2643738550758734 0.05760593024367647
0 0.3674078029292137 0.09230820577162213
0.0026832386190199483 0.3677420487241041 0.08704245055078755
0.04182996953975639 0.37036783216270586 0.07770948651323788
0.08541228816990491 0.3726183397846766 0.06636736775351001
