GTG Entry Level Skin Separator.cube
LUT_3D_SIZE 17
0.06437515081646773 0.09189157063551144 0.07429415632130565
0.10549918532610078 0.09189157063551144 0.07429415632130565
0.14662321983573384 0.09189157063551144 0.07429415632130565
0.18774725434536688 0.09189157063551144 0.07429415632130565
0.22887128885499997 0.09189157063551144 0.07429415632130565
0.26999532336463306 0.09189157063551144 0.07429415632130565
0.3111193578742661 0.09189157063551144 0.07429415632130565
0.3522433923838991 0.09189157063551144 0.07429415632130565
0.3933674268935322 0.09189157063551144 0.07429415632130565
0.4344914614031652 0.09189157063551144 0.07429415632130565
0.4756154959127983 0.09189157063551144 0.07429415632130565
0.5167395304224314 0.09189157063551144 0.07429415632130565
0.5578635649320643 0.09189157063551144 0.07429415632130565
0.5989875994416974 0.09189157063551144 0.07429415632130565
0.6401116339513304 0.09189157063551144 0.07429415632130565
0.6812356684609635 0.09189157063551144 0.07429415632130565
0.7223597029705966 0.09189157063551144 0.07429415632130565
0 0.11551470588235294 0.08235294117647059
0.05223453531926228 0.11789136688096674 0.08120725528870325
0.24920681074946757 0.16441159973273328 0.061553003055265496
0.33403153253682694 0.18045267127050393 0.05566863905325445
0.3233156403849478 0.16497469395619477 0.06134021734926714
0.3374136238198983 0.15695319099491647 0.06441830065359479
0.36210944128630185 0.1520928917790578 0.06633499632594655
0.39224539674881864 0.14884834631962307 0.06763776595450804
0.42552495028256004 0.14653491746525762 0.0685785860695363
0.46077785071798294 0.1448049065393366 0.06928884935521437
0.4973476624662264 0.1434637340423663 0.06984352399737015
0.534838674500154 0.1423943032325644 0.07028839929210147
0.5729985920966545 0.14152205110793137 0.07065297598329275
0.6116591726246047 0.14079730365680299 0.07095709515672566
0.6507040207843725 0.1401857209739468 0.07121458129602926
0.6900501020865354 0.13966282029196286 0.07143535599644196
0.7296366218316627 0.1392106849552744 0.07162672100398346
0 0.15926470588235295 0.08235294117647059
0.04375 0.15926470588235295 0.08235294117647059
0.09563310892455414 0.1612899404862586 0.08120725528870325
0.21343234604871886 0.1810217910474433 0.07081161774374443
0.321686078878631 0.20065123379731498 0.061553003055265496
0.40873384162532317 0.2164316860678403 0.05469837954905829
0.43507399463549296 0.21413349197005926 0.05566863905325445
0.4469181046600284 0.20642190776774585 0.05899241432273107
0.46791740346967736 0.2011251347273772 0.06134021734926714
0.4944285089596061 0.19727967672657373 0.0630803435991973
0.5244951053013798 0.19436948729121276 0.06441830065359479
0.5569794804379707 0.19209495907416946 0.0654771951390627
0.5911778375064778 0.1902709578157538 0.06633499632594655
0.6266328323314789 0.18877726389963834 0.06704335291531736
0.6630350904058999 0.18753258827063468 0.06763776595450804
0.7001682247902838 0.18648008729303844 0.06814340410720501
0.7378765575632569 0.18557886837534474 0.0685785860695363
0 0.20301470588235293 0.08235294117647059
0.04375 0.20301470588235293 0.08235294117647059
0.0875 0.20301470588235293 0.08235294117647059
0.139031682529846 0.20468851409155045 0.08120725528870325
0.22796169352549886 0.21505479509726433 0.07442572610898403
0.3162939611386624 0.2265657016057339 0.06743303554163282
0.39416534700779443 0.2368908678618967 0.061553003055265496
0.4615591315459745 0.24575073254358873 0.056756291471223595
0.5201262647473616 0.2532903231563368 0.052832443825656494
0.536116456734159 0.24781431266961457 0.05566863905325445
0.5574464868682878 0.24338130395255123 0.05801848628997951
0.5833825215594417 0.23997213102931525 0.05986054386218929
0.6125191665544071 0.23727557549855957 0.06134021734926714
0.6439621674692004 0.23509338932838325 0.06255292959708071
0.6771175693355568 0.23329374061480307 0.06356371029674197
0.7115765867828613 0.23178578358750906 0.06441830065359479
0.747049315464396 0.2305050095336085 0.0651497515179642
0 0.24676470588235294 0.08235294117647059
0.04375 0.24676470588235294 0.08235294117647059
0.0875 0.24676470588235294 0.08235294117647059
0.13125 0.24676470588235294 0.08235294117647059
0.18243025613513786 0.24808708769684235 0.08120725528870325
0.2571220128590218 0.25395984731336163 0.07626932745484782
0.3330667186391588 0.2607780394410699 0.07081161774374443
0.40328385632106206 0.26727134390687496 0.06585247432306256
0.4666446151369579 0.2731305019264784 0.061553003055265496
0.5235896516405596 0.27832599832382465 0.05786519876414296
0.5749364245310468 0.2829127192301298 0.05469837954905829
0.6143052975257758 0.2847697377059605 0.05343844546148126
0.6371589188328249 0.2814951333691699 0.05566863905325445
0.6637086631490032 0.2788693715942481 0.05748582520201574
0.6929659533033168 0.2767212930943997 0.05899241432273107
0.724259968565796 0.27493420181462824 0.06026004563561125
0.7571209296391367 0.273426016269742 0.06134021734926714
0 0.29051470588235295 0.08235294117647059
0.04375 0.29051470588235295 0.08235294117647059
0.0875 0.29051470588235295 0.08235294117647059
0.13125 0.29051470588235295 0.08235294117647059
0.175 0.29051470588235295 0.08235294117647059
0.22582882974042973 0.29148566130213416 0.08120725528870325
0.2922475869672823 0.29480120106329005 0.07736303515489036
0.36011700709335015 0.29870803271003626 0.07295969590992216
0.42453925562519745 0.302551238968598 0.06875076381637468
0.48422752324311297 0.3061226485984664 0.0649400076489066
0.5391238832661214 0.3093701359910601 0.061553003055265496
0.5895906921668811 0.3122990913909868 0.05855808216647378
0.6361081172839507 0.3149352321169208 0.05590849673202615
0.6791578875122516 0.31730978894214723 0.05355731992504061
0.7105965072494851 0.31693740103998913 0.05392387803247533
0.7382013809314909 0.3151759540687253 0.05566863905325445
0.7680536629965748 0.3136947949412756 0.05714998356344511
0 0.33426470588235296 0.08235294117647059
0.04375 0.33426470588235296 0.08235294117647059
0.0875 0.33426470588235296 0.08235294117647059
0.13125 0.33426470588235296 0.08235294117647059
0.175 0.33426470588235296 0.08235294117647059
0.21875 0.33426470588235296 0.08235294117647059
0.2692274033457216 0.334884234907426 0.08120725528870325
0.33031601676771155 0.3365795925384217 0.07807795623180239
0.3926408543048314 0.3385641656817638 0.07442572610898403
0.45270109122959873 0.3405342878346966 0.07081161774374443
0.5093205503622475 0.34238165513988494 0.06743303554163282
0.5622463012111086 0.34407406041261684 0.06434656216309857
0.6116031513952848 0.34560977005564186 0.061553003055265496
0.6576618921516375 0.3469988725381287 0.05903194561439762
0.7007365989400163 0.3482553614267495 0.056756291471223595
0.7411390074367703 0.34939375239241915 0.05469837954905829
0.779159250383936 0.35042769277005226 0.052832443825656494
0 0.378014705882353 0.08235294117647059
0.04375 0.378014705882353 0.08235294117647059
0.0875 0.378014705882353 0.08235294117647059
0.13125 0.378014705882353 0.08235294117647059
0.175 0.378014705882353 0.08235294117647059
0.21875 0.378014705882353 0.08235294117647059
0.2625312615602892 0.37801597279947274 0.08234759308062477
0.31262597695101346 0.3782828085127179 0.08120725528870325
0.3700274696580145 0.3788730333337409 0.07857788993309356
0.42837385549189966 0.37952360404170815 0.07548002904865649
0.48510518088855525 0.3801338340347459 0.07233847700816028
0.5392159801700267 0.3806715448460913 0.06932959503588874
0.5903908004487814 0.3811322337347617 0.0665207100591716
0.6386312683984066 0.38152181751777686 0.06392989022692629
0.6840824195244481 0.38184940412022356 0.061553003055265496
0.7269481833938378 0.38212434823288566 0.05937641644428975
0.7674495090818733 0.3823551476340923 0.057383073249023496
0 0.42176470588235293 0.08235294117647059
0.04375 0.42176470588235293 0.08235294117647059
0.0875 0.42176470588235293 0.08235294117647059
0.13125 0.42176470588235293 0.08235294117647059
0.175 0.42176470588235293 0.08235294117647059
0.21875 0.42176470588235293 0.08235294117647059
0.2625 0.42176470588235293 0.08235294117647059
0.30646681590234187 0.4217620898524596 0.08231382217581314
0.3560245505563053 0.42168138211800976 0.08120725528870325
0.4107397462719221 0.42147608674455544 0.07894524156364277
0.4661263495159757 0.4211633166389247 0.07626932745484782
0.5202712781013771 0.4207609954945868 0.07350718078484429
0.5723354638200387 0.4202905362283232 0.07081161774374443
0.6219989511569147 0.4197724528266797 0.06825115376262662
0.6692012993617704 0.4192241685015654 0.06585247432306256
0.7140117797270514 0.41865951836969517 0.06362130177514792
0.7565616876536116 0.4180890381848053 0.061553003055265496
0 0.46551470588235294 0.08235294117647059
0.04375 0.46551470588235294 0.08235294117647059
0.0875 0.46551470588235294 0.08235294117647059
0.13125 0.46551470588235294 0.08235294117647059
0.175 0.46551470588235294 0.08235294117647059
0.21875 0.46551470588235294 0.08235294117647059
0.2625 0.46551470588235294 0.08235294117647059
0.30625 0.46551470588235294 0.08235294117647059
0.35045517250581393 0.46548248215510074 0.08226607022383794
0.3994231241615971 0.46507995572330163 0.08120725528870325
0.45210245051724196 0.46427805476659834 0.07922558688169548
0.5052206704005509 0.4632468159523998 0.07687931940996524
0.5573200150841641 0.46207353626626324 0.07442572610898403
0.607705771535872 0.4608159485548693 0.07199573622149862
0.6560779406799924 0.4595144270087275 0.06965470527461479
0.7023471395858327 0.458197608674036 0.06743303554163282
0.7465370932546171 0.45688572502093083 0.06534223324438257
0 0.509264705882353 0.08235294117647059
0.04375 0.509264705882353 0.08235294117647059
0.0875 0.509264705882353 0.08235294117647059
0.13125 0.509264705882353 0.08235294117647059
0.175 0.509264705882353 0.08235294117647059
0.21875 0.509264705882353 0.08235294117647059
0.2625 0.509264705882353 0.08235294117647059
0.30625 0.509264705882353 0.08235294117647059
0.35 0.509264705882353 0.08235294117647059
0.3944342554374758 0.5091711022743636 0.08221433267587114
0.44282169776688907 0.5084785293285935 0.08120725528870325
0.49390955880058873 0.5072145556558003 0.07944601091125156
0.545245802015775 0.5056330469370339 0.07736303515489036
0.5957004568483415 0.503861233305175 0.07516363760354229
0.644698814917454 0.5019807525843961 0.07295969590992216
0.6919698364104787 0.5000467846219498 0.07081161774374443
0.7374132618453961 0.4980974928562221 0.06875076381637468
0 0.5530147058823529 0.08235294117647059
0.04375 0.5530147058823529 0.08235294117647059
0.0875 0.5530147058823529 0.08235294117647059
0.13125 0.5530147058823529 0.08235294117647059
0.175 0.5530147058823529 0.08235294117647059
0.21875 0.5530147058823529 0.08235294117647059
0.2625 0.5530147058823529 0.08235294117647059
0.30625 0.5530147058823529 0.08235294117647059
0.35 0.5530147058823529 0.08235294117647059
0.39375000000000004 0.5530147058823529 0.08235294117647059
0.4383798069751698 0.5528286225109352 0.08216305254232033
0.4862202713721809 0.5518771029338854 0.08120725528870325
0.5360326465889989 0.5502458443902236 0.07962354488146343
0.5859396306117407 0.5482334115615771 0.07775485790875761
0.635052162722825 0.5459890119198876 0.07576744622898468
0.6828936739321618 0.5436094700589245 0.07375704838148277
0.7292239581914942 0.5411605298355091 0.07177859477124184
0 0.596764705882353 0.08235294117647059
0.04375 0.596764705882353 0.08235294117647059
0.0875 0.596764705882353 0.08235294117647059
0.13125 0.596764705882353 0.08235294117647059
0.175 0.596764705882353 0.08235294117647059
0.21875 0.596764705882353 0.08235294117647059
0.2625 0.596764705882353 0.08235294117647059
0.30625 0.596764705882353 0.08235294117647059
0.35 0.596764705882353 0.08235294117647059
0.39375000000000004 0.596764705882353 0.08235294117647059
0.4375 0.596764705882353 0.08235294117647059
0.48228381038460166 0.5964579145938758 0.08211416637660982
0.5296188449774727 0.5952756765391772 0.08120725528870325
0.5783878125478401 0.5933461810575608 0.07976939713714461
0.6271279939551068 0.5909898586990462 0.07807795623180239
0.6751306861729296 0.5883667859644878 0.07626932745484782
0.7219991758634967 0.5855829068507628 0.07442572610898403
0 0.6405147058823529 0.08235294117647059
0.04375 0.6405147058823529 0.08235294117647059
0.0875 0.6405147058823529 0.08235294117647059
0.13125 0.6405147058823529 0.08235294117647059
0.175 0.6405147058823529 0.08235294117647059
0.21875 0.6405147058823529 0.08235294117647059
0.2625 0.6405147058823529 0.08235294117647059
0.30625 0.6405147058823529 0.08235294117647059
0.35 0.6405147058823529 0.08235294117647059
0.39375000000000004 0.6405147058823529 0.08235294117647059
0.4375 0.6405147058823529 0.08235294117647059
0.48125 0.6405147058823529 0.08235294117647059
0.5261453533806196 0.6400623476934845 0.08206843236343356
0.5730174185827646 0.6386742501444691 0.08120725528870325
0.62091808768363 0.6364982268421405 0.07989122591837525
0.668691137445705 0.6338629892168013 0.07834845496383959
0.7157651372370284 0.6309325568571578 0.07669215782960126
0 0.684264705882353 0.08235294117647059
0.04375 0.684264705882353 0.08235294117647059
0.0875 0.684264705882353 0.08235294117647059
0.13125 0.684264705882353 0.08235294117647059
0.175 0.684264705882353 0.08235294117647059
0.21875 0.684264705882353 0.08235294117647059
0.2625 0.684264705882353 0.08235294117647059
0.30625 0.684264705882353 0.08235294117647059
0.35 0.684264705882353 0.08235294117647059
0.39375000000000004 0.684264705882353 0.08235294117647059
0.4375 0.684264705882353 0.08235294117647059
0.48125 0.684264705882353 0.08235294117647059
0.5250215199112604 0.6842546075422725 0.08234759308062477
0.5699665569338941 0.6836451555222318 0.08202604434278643
0.6164159921880565 0.6820728237497609 0.08120725528870325
0.6635835223542867 0.6796899113572532 0.07999443090845805
0.7105442934927535 0.6768252541891376 0.07857788993309356
0 0.728014705882353 0.08235294117647059
0.04375 0.728014705882353 0.08235294117647059
0.0875 0.728014705882353 0.08235294117647059
0.13125 0.728014705882353 0.08235294117647059
0.175 0.728014705882353 0.08235294117647059
0.21875 0.728014705882353 0.08235294117647059
0.2625 0.728014705882353 0.08235294117647059
0.30625 0.728014705882353 0.08235294117647059
0.35 0.728014705882353 0.08235294117647059
0.39375000000000004 0.728014705882353 0.08235294117647059
0.4375 0.728014705882353 0.08235294117647059
0.48125 0.728014705882353 0.08235294117647059
0.525 0.728014705882353 0.08235294117647059
0.5688225157162756 0.7279719769464874 0.0823334493560738
0.6137507044299202 0.7272092258533043 0.08198692810457517
0.6598145657933483 0.7254713973550528 0.08120725528870325
0.7063553246163763 0.7229125938764766 0.08008292241946088
0 0.7717647058823529 0.08235294117647059
0.04375 0.7717647058823529 0.08235294117647059
0.0875 0.7717647058823529 0.08235294117647059
0.13125 0.7717647058823529 0.08235294117647059
0.175 0.7717647058823529 0.08235294117647059
0.21875 0.7717647058823529 0.08235294117647059
0.2625 0.7717647058823529 0.08235294117647059
0.30625 0.7717647058823529 0.08235294117647059
0.35 0.7717647058823529 0.08235294117647059
0.39375000000000004 0.7717647058823529 0.08235294117647059
0.4375 0.7717647058823529 0.08235294117647059
0.48125 0.7717647058823529 0.08235294117647059
0.525 0.7717647058823529 0.08235294117647059
0.56875 0.7717647058823529 0.08235294117647059
0.612633658410614 0.7716670527190563 0.08231382217581314
0.6575013740267661 0.7707570584008083 0.08195088854082067
0.7032131393986402 0.7688699709603447 0.08120725528870325
0 0.07176470588235294 0.12610294117647058
0.04375 0.07176470588235294 0.12610294117647058
0.0875 0.07176470588235294 0.12610294117647058
0.13302261292314324 0.07238481438189719 0.12576114169427832
0.18275855906551686 0.07461370841896145 0.12453986303285693
0.23166042541010406 0.07675341121690973 0.12337785079963773
0.27909018529998747 0.07852671607725055 0.1224222672834408
0.3252800604425946 0.0799682920584717 0.12165026944900757
0.370516294707698 0.08114735085330428 0.12102199610226036
0.41502675075905304 0.08212345569506857 0.12050396523160442
0.45897976279286745 0.08294209272792702 0.12007094532979484
0.5024984012188928 0.08363714753557903 0.11970431266011623
0.5456733648193447 0.08423390067802493 0.11939027058847745
0.5885724200802307 0.08475140609308542 0.11911847931225387
0.6312469725974609 0.08520421255807303 0.11888108066748647
0.6737366039937911 0.0856035800580938 0.11867201683908742
0.7160722244860814 0.08595833824024306 0.1184865535978492
0 0.11551470588235294 0.12610294117647058
0.10549918532610078 0.1330156051451445 0.11541819083093871
0.14662321983573384 0.1330156051451445 0.11541819083093871
0.18774725434536688 0.1330156051451445 0.11541819083093871
0.22887128885499997 0.1330156051451445 0.11541819083093871
0.26999532336463306 0.1330156051451445 0.11541819083093871
0.3111193578742661 0.1330156051451445 0.11541819083093871
0.3522433923838991 0.1330156051451445 0.11541819083093871
0.3933674268935322 0.1330156051451445 0.11541819083093871
0.4344914614031652 0.1330156051451445 0.11541819083093871
0.4756154959127983 0.1330156051451445 0.11541819083093871
0.5167395304224314 0.1330156051451445 0.11541819083093871
0.5578635649320643 0.1330156051451445 0.11541819083093871
0.5989875994416974 0.1330156051451445 0.11541819083093871
0.6401116339513304 0.1330156051451445 0.11541819083093871
0.6812356684609635 0.1330156051451445 0.11541819083093871
0.7223597029705966 0.1330156051451445 0.11541819083093871
0 0.15926470588235295 0.12610294117647058
0.04375 0.15926470588235295 0.12610294117647058
0.09563310892455414 0.1612899404862586 0.1246058288939951
0.28544644481404924 0.20065123379731498 0.09779263711984722
0.36771235323638224 0.21413349197005926 0.08934945975280978
0.3594660811561302 0.2011251347273772 0.09749065812044955
0.3748299201161946 0.19436948729121276 0.10183459694989108
0.4002875073229979 0.1902709578157538 0.10451306236264254
0.43092963869983025 0.18753258827063468 0.10632200790551966
0.46456890119264715 0.18557886837534474 0.1076225369796234
0.5000901183817342 0.18411717420308785 0.1086011170189656
0.536867530260564 0.1829836018367038 0.10936339179170768
0.5745238180379582 0.18207944677036852 0.10997354282990557
0.6128183637476821 0.181341822758959 0.11047274763432036
0.6515906848636985 0.1807288158958968 0.11088860739581945
0.6907297397437018 0.180211439933276 0.1112403002553585
0.7301563041984543 0.17976902240388185 0.11154155810836097
0 0.20301470588235293 0.12610294117647058
0.04375 0.20301470588235293 0.12610294117647058
0.0875 0.20301470588235293 0.12610294117647058
0.139031682529846 0.20468851409155045 0.1246058288939951
0.25331047024553216 0.2208999152442566 0.11068974194055775
0.35792571294321274 0.2368908678618967 0.09779263711984722
0.44197435820646797 0.24967220264898504 0.087938896130203
0.46875481533504826 0.24781431266961457 0.08934945975280978
0.48206779732335536 0.24157160043107276 0.09414210698605799
0.5040678442408599 0.23727557549855957 0.09749065812044955
0.5313010098670647 0.2341521776340323 0.09995284450665587
0.561911401597676 0.23178578358750906 0.10183459694989108
0.594819133977174 0.2299346126133726 0.10331684867826588
0.6293559035431738 0.22844902385244978 0.10451306236264254
0.6650872861240322 0.2272317176921917 0.10549780670787073
0.7017193323569115 0.2262168302216463 0.10632200790551966
0.7390463985236965 0.22535826102645112 0.10702157784061772
0 0.24676470588235294 0.12610294117647058
0.04375 0.24676470588235294 0.12610294117647058
0.0875 0.24676470588235294 0.12610294117647058
0.13125 0.24676470588235294 0.12610294117647058
0.18243025613513786 0.24808708769684235 0.1246058288939951
0.269131483720332 0.25622458529209746 0.11559551630381718
0.3548992789833795 0.2651710194504509 0.10603835338634984
0.4304049810723761 0.2731305019264784 0.09779263711984722
0.49572734117369477 0.27991894217130897 0.09092450109894384
0.5525053879519333 0.28566944636090863 0.08521156703022831
0.5697972774337142 0.2814951333691699 0.08934945975280978
0.5921720998707375 0.27810691695500084 0.0927440992924291
0.6189058047046917 0.2754954141745653 0.09538382700743933
0.6486696073255894 0.273426016269742 0.09749065812044955
0.6806175878138575 0.27174880967304027 0.0992083499417378
0.7141876704337901 0.2703638417130364 0.10063381139497529
0.7489928830791576 0.26920207988380535 0.10183459694989108
0 0.29051470588235295 0.12610294117647058
0.04375 0.29051470588235295 0.12610294117647058
0.0875 0.29051470588235295 0.12610294117647058
0.13125 0.29051470588235295 0.12610294117647058
0.175 0.29051470588235295 0.12610294117647058
0.22582882974042973 0.29148566130213416 0.1246058288939951
0.2989228801904126 0.2957607146447524 0.11807019478623859
0.3729448428359721 0.3006561636378832 0.11068974194055775
0.4412720624697347 0.30525955005554756 0.10384068047173517
0.5028842492015395 0.3093701359910601 0.09779263711984722
0.558248040611153 0.3129843872944181 0.09252358773473633
0.6081769411121916 0.3161532358112744 0.087938896130203
0.6469662871233111 0.3174307273034956 0.08609943505901638
0.6708397395323803 0.3151759540687253 0.08934945975280978
0.6982001196927241 0.313360828137969 0.09197728174573666
0.7281156459666438 0.3118709857577266 0.09414210698605799
0.7599537730414666 0.3106280062902989 0.09595385011128191
0 0.33426470588235296 0.12610294117647058
0.04375 0.33426470588235296 0.12610294117647058
0.0875 0.33426470588235296 0.12610294117647058
0.13125 0.33426470588235296 0.12610294117647058
0.175 0.33426470588235296 0.12610294117647058
0.21875 0.33426470588235296 0.12610294117647058
0.2692274033457216 0.334884234907426 0.1246058288939951
0.33441395614203107 0.3369675702380388 0.11952940432963914
0.4007715510682221 0.3393625766849082 0.11361423988479412
0.46364850640272226 0.3416604897461228 0.1078600145938995
0.5218531783385442 0.3437483036938977 0.10256566274433787
0.575363517330703 0.34560977005564186 0.09779263711984722
0.6245519105465952 0.3472603097707009 0.09351930054618782
0.6698969830246914 0.3487240978576616 0.08969736247276688
0.711873930342102 0.35002583177199764 0.086273362754891
0.7434818188068895 0.3498227125973935 0.08680918958987967
0.7718822016310463 0.34885677476828064 0.08934945975280978
0 0.378014705882353 0.12610294117647058
0.04375 0.378014705882353 0.12610294117647058
0.0875 0.378014705882353 0.12610294117647058
0.13125 0.378014705882353 0.12610294117647058
0.175 0.378014705882353 0.12610294117647058
0.21875 0.378014705882353 0.12610294117647058
0.2625 0.378014705882353 0.12610294117647058
0.31262597695101346 0.3782828085127179 0.1246058288939951
0.37271772779448226 0.37898130356519244 0.12047966725857312
0.43381064449966455 0.3797339558765969 0.11559551630381718
0.4925792154264121 0.3804124120315099 0.11068974194055775
0.5479258682069645 0.380986972984602 0.10603835338634984
0.5996336914562674 0.3814614506577757 0.10173395240825742
0.6478427854598664 0.38184940412022356 0.09779263711984722
0.6928286872517883 0.3821656676382794 0.09419874071454831
0.7349048085677365 0.3824235710544697 0.09092450109894384
0.774379524017915 0.3826342689735639 0.087938896130203
0 0.42176470588235293 0.12610294117647058
0.04375 0.42176470588235293 0.12610294117647058
0.0875 0.42176470588235293 0.12610294117647058
0.13125 0.42176470588235293 0.12610294117647058
0.175 0.42176470588235293 0.12610294117647058
0.21875 0.42176470588235293 0.12610294117647058
0.2625 0.42176470588235293 0.12610294117647058
0.30627963795211777 0.42176434919130124 0.1260959694724533
0.3560245505563053 0.42168138211800976 0.1246058288939951
0.41259207263735687 0.4214376363130833 0.12114249291243594
0.46990684131723104 0.42105658986703964 0.11701301487398799
0.5255378085068951 0.4205664616530858 0.11277110462650022
0.5785435557636618 0.4199991204397263 0.1086571706295238
0.6286415969238699 0.4193830302098501 0.10477150653426
0.6758502037126617 0.4187407528320319 0.10114882554118132
0.7203220535890299 0.4180890381848053 0.09779263711984722
0.7622636413285766 0.41743980616762444 0.09469187437902851
0 0.46551470588235294 0.12610294117647058
0.04375 0.46551470588235294 0.12610294117647058
0.0875 0.46551470588235294 0.12610294117647058
